!!!COM: Anonymous
!!!OPR: Missa Gross senen
!!!ONM: 3
!!!OTL: Credo
!!!AGN: Mass; Credo
!!!SCT: Ano1026c
!!!SCA: Ano1026c
!!!SMS: Trent 89
!!!folio-OPR:
!!!folio:
!!!voices: 4
**kern	**text	**kern	**text	**kern	**text	**kern	**text
*part4	*part4	*part3	*part3	*part2	*part2	*part1	*part1
*staff4	*staff4	*staff3	*staff3	*staff2	*staff2	*staff1	*staff1
*Ivox	*	*Ivox	*	*Ivox	*	*Ivox	*
*I"Bassus	*	*I"Tenor	*	*I"Altus	*	*I"Discantus	*
*I'B	*	*I'T	*	*I'A	*	*I'D	*
*>[A,B,C,D]	*>[A,B,C,D]	*>[A,B,C,D]	*>[A,B,C,D]	*>[A,B,C,D]	*>[A,B,C,D]	*>[A,B,C,D]	*>[A,B,C,D]
*>A	*>A	*>A	*>A	*>A	*>A	*>A	*>A
*clefF4	*	*clefGv2	*	*clefGv2	*	*clefG2	*
*k[b-e-]	*	*k[b-]	*	*k[b-]	*	*k[b-]	*
*g:	*	*d:	*	*d:	*	*d:	*
*M3/1	*	*M3/1	*	*M3/1	*	*M3/1	*
*met(O)	*	*met(C.)	*	*met(O)	*	*met(O)	*
*MM300	*	*MM300	*	*MM300	*	*MM300	*
=1	=1	=1	=1	=1	=1	=1	=1
!!section: Patrem
!!!OMD: Patrem
*	*	*rscale:1/6	*	*	*	*	*
!	!	!LO:TX:Z=8:X=-60:t=T&colon; ``Cantet, si nota pausaque triplet'' [two levels of augmentation]	!	!	!	!	!
!	!	!LO:N:vis=1.	!	!	!	!	!
0.r	.	0.r	.	2.G	Pa-	[0.g	Pa-
.	.	.	.	4A	.	.	.
.	.	.	.	2B-	.	.	.
.	.	.	.	1c	.	.	.
.	.	.	.	2B-	.	.	.
=2	=2	=2-	=2	=2	=2	=2	=2
0.r	.	0.ryy	.	2c	.	1g]	.
.	.	.	.	2e-Xi	.	.	.
.	.	.	.	2d	.	0f	.
.	.	.	.	4c	.	.	.
.	.	.	.	4B-	.	.	.
.	.	.	.	1A	.	.	.
=3	=3	=3-	=3	=3	=3	=3	=3
0.r	.	0.ryy	.	1G	-trem	1b-	-trem
.	.	.	.	1d	om-	1b-	om-
.	.	.	.	1d	-ni-	[1a	-ni-
=4	=4	=4-	=4	=4	=4	=4	=4
!	!	!LO:N:vis=1.	!	!	!	!	!
0.r	.	0.r	.	1.c	-po-	2a]	.
.	.	.	.	.	.	2g	-po-
.	.	.	.	.	.	2g	-ten-
.	.	.	.	2B-	.	4f	.
.	.	.	.	.	.	4e	.
.	.	.	.	1B-	-ten-	1d	.
=5	=5	=5-	=5	=5	=5	=5	=5
0.r	.	0.ryy	.	2c	.	2e	.
.	.	.	.	2d	.	1f	.
.	.	.	.	1B-	.	.	.
.	.	.	.	.	.	1d	.
.	.	.	.	1G	.	.	.
.	.	.	.	.	.	2e	.
=6	=6	=6-	=6	=6	=6	=6	=6
0.r	.	0.ryy	.	2F	.	2f	.
.	.	.	.	2.B-	.	1g	.
.	.	.	.	4c	.	.	.
.	.	.	.	1d	.	2f	.
.	.	.	.	.	.	1e	.
.	.	.	.	2c#Xi	.	.	.
=7	=7	=7	=7	=7	=7	=7	=7
!	!	!LO:N:vis=1.	!	!	!	!	!
0.r	.	0.r	.	1d	-tem,	0.d	-tem,
.	.	.	.	1r	.	.	.
.	.	.	.	1B-	fac-	.	.
=8	=8	=8-	=8	=8	=8	=8	=8
0.r	.	0.ryy	.	1B-	-to-	0.r	.
.	.	.	.	1c	-rem	.	.
.	.	.	.	1e-Xi	ce-	.	.
=9	=9	=9-	=9	=9	=9	=9	=9
0.r	.	0.ryy	.	2.d	.	1f	fac-
.	.	.	.	4c	.	.	.
.	.	.	.	2A	.	1f	-to-
.	.	.	.	1B-	.	.	.
.	.	.	.	.	.	1g	-rem
.	.	.	.	2A	.	.	.
=10	=10	=10-	=10	=10	=10	=10	=10
!	!	!LO:N:vis=1.	!	!	!	!	!
0.r	.	0.r	.	2G	.	1b-	ce-
.	.	.	.	4F	.	.	.
.	.	.	.	4E	.	.	.
.	.	.	.	1D	-li,-	1.a	.
.	.	.	.	1r	.	.	.
.	.	.	.	.	.	[2f	.
=11	=11	=11-	=11	=11	=11	=11	=11
0.r	.	0.ryy	.	1d	-ce-	2f]	.
.	.	.	.	.	.	1b-	.
.	.	.	.	1c	.	.	.
.	.	.	.	.	.	2a	.
.	.	.	.	2B-	.	2g	.
.	.	.	.	2c	.	4f	.
.	.	.	.	.	.	4e	.
=12	=12	=12-	=12	=12	=12	=12	=12
0.r	.	0.ryy	.	2B-	.	1d	-li
.	.	.	.	4A	.	.	.
.	.	.	.	4G	.	.	.
.	.	.	.	1F	-li	2r	.
.	.	.	.	.	.	2c	et
.	.	.	.	2.G	et	2B-	.
.	.	.	.	.	.	[2d	ter-
.	.	.	.	4F	.	.	.
=13	=13	=13	=13	=13	=13	=13	=13
!	!	!LO:N:vis=1.	!	!	!	!	!
0.r	.	0.r	.	1G	.	2d]	.
.	.	.	.	.	.	2e-Xi	.
!	!	!	!	!	!	!LO:TX:Z=12:t=MS&colon; m d' - sm c' b	!
.	.	.	.	2F	ter-	2.d	.
.	.	.	.	1D	.	.	.
.	.	.	.	.	.	4c	.
.	.	.	.	.	.	2.A	.
.	.	.	.	2F	.	.	.
.	.	.	.	.	.	4B-	.
=14	=14	=14-	=14	=14	=14	=14	=14
0.r	.	0.ryy	.	2E	.	2c	.
.	.	.	.	2D	.	1d	.
.	.	.	.	1G	.	.	.
.	.	.	.	.	.	1G	.
.	.	.	.	2.B-	.	.	.
.	.	.	.	.	.	[2d	.
.	.	.	.	4A	.	.	.
=15	=15	=15-	=15	=15	=15	=15	=15
0.r	.	0.ryy	.	2.G	.	4d]	.
.	.	.	.	.	.	4c	.
.	.	.	.	.	.	2d	.
.	.	.	.	4F	.	.	.
.	.	.	.	2G	.	2e-Xi	.
.	.	.	.	2D	.	1d	.
.	.	.	.	1E-Xi	.	.	.
.	.	.	.	.	.	2c	.
=16	=16	=16-	=16	=16	=16	=16	=16
!	!	!LO:N:vis=1.	!	!	!	!	!
0.GG	Et	0.r	.	1D	-re,	0.d	-re,
.	.	.	.	1r	.	.	.
.	.	.	.	[1B-	vi-	.	.
=17	=17	=17-	=17	=17	=17	=17	=17
1D	in-	0.ryy	.	2B-]	.	1r	.
.	.	.	.	2B-	-si-	.	.
1E-	-vi-	.	.	2c	-bi-	1r	.
.	.	.	.	2c	-li-	.	.
2D	.	.	.	[1d	-um	[1f	vi-
2BB-	.	.	.	.	.	.	.
=18	=18	=18-	=18	=18	=18	=18	=18
1BB-	-si-	0.ryy	.	2d]	.	2f]	.
.	.	.	.	2B-	om-	2f	-si-
1E-	-bi-	.	.	2B-	-ni-	2g	-bi-
.	.	.	.	4A	.	2g	-li-
.	.	.	.	4G	.	.	.
1D	-li-	.	.	1F	-um,-	1a	-um
=19	=19	=19	=19	=19	=19	=19	=19
!	!	!LO:N:vis=1.	!	!	!	!	!
0GG	-um.	[y0.G	Et	1G	-om-	1.b-	om-
.	.	.	.	1.B-	.	.	.
.	.	.	.	.	.	2a	.
1r	.	.	.	.	.	2g	-ni-
.	.	.	.	2A	-ni-	4f	.
.	.	.	.	.	.	4e	.
=20	=20	=20-	=20	=20	=20	=20	=20
[0.GG	Et	0.G_yy	.	2G	-um	1d	-um
.	.	.	.	4F	.	.	.
.	.	.	.	4E	.	.	.
.	.	.	.	1D	.	2r	.
.	.	.	.	.	.	2G	et
.	.	.	.	2r	.	2.B-	in-
.	.	.	.	2G	et	.	.
.	.	.	.	.	.	4A	.
=21	=21	=21-	=21	=21	=21	=21	=21
0.GG]	.	0.G]yy	.	2.B-	in-	2B-	-vi-
.	.	.	.	.	.	2c	-si-
.	.	.	.	4A	.	.	.
.	.	.	.	2B-	-vi-	2d	-bi-
.	.	.	.	2c	-si-	2e-Xi	.
.	.	.	.	2d	-bi-	2d	.
.	.	.	.	2B-	.	[2g	.
=22	=22	=22-	=22	=22	=22	=22	=22
1C	.	0.G	in	2c	.	4g]	.
.	.	.	.	.	.	4f	.
.	.	.	.	2.G	.	4eni	.
.	.	.	.	.	.	4d	.
2r	.	.	.	.	.	2e	.
.	.	.	.	4F	.	.	.
2C	in	.	.	2E	.	1c	.
1GG	.	.	.	1D	-li-	.	.
.	.	.	.	.	.	2Bni	-li-
=23	=23	=23-	=23	=23	=23	=23	=23
!	!	!LO:N:vis=1	!	!	!	!	!
1r	.	[y0.G	u-	1C	-um.	0c	-um.
[0C	u-	.	.	1r	.	.	.
.	.	.	.	1c	Et	1r	.
=24	=24	=24-	=24	=24	=24	=24	=24
0.C]	.	0.G]yy	.	0c	in	1g	Et
.	.	.	.	.	.	2g	in
.	.	.	.	.	.	1e	u-
.	.	.	.	1c	u-	.	.
.	.	.	.	.	.	2d	.
=25	=25	=25	=25	=25	=25	=25	=25
!	!	!LO:N:vis=1	!	!	!	!	!
1GG	-num	[y0.B-	-num	2B-	-num	1d	-num
.	.	.	.	4A	.	.	.
.	.	.	.	4G	.	.	.
!	!	!	!	!LO:TX:Z=12:t=MS&colon; sb m	!	!	!
1BB-	do-	.	.	2F	.	2r	.
.	.	.	.	1G	do-	2g	do-
2E-	.	.	.	.	.	2g	-mi-
2D	.	.	.	[2d	.	[2f	-num,-
=26	=26	=26-	=26	=26	=26	=26	=26
2BB-	.	0.B-]yy	.	2d]	.	4f]	.
!	!	!	!	!	!	!LO:TX:Z=12:t=MS&colon; e'	!
.	.	.	.	.	.	4d	.
1E-	.	.	.	2.G	.	1g	.
.	.	.	.	4A	.	.	.
2.D	-mi-	.	.	4B-	.	2f	-do-
.	.	.	.	4c	.	.	.
.	.	.	.	1d	.	2d	.
4BB-	.	.	.	.	.	.	.
2D	.	.	.	.	.	2f	.
=27	=27	=27-	=27	=27	=27	=27	=27
1AA	-num	0.c	do-	2c	.	2e	.
.	.	.	.	2.A	.	1a	.
2r	.	.	.	.	.	.	.
.	.	.	.	4G	.	.	.
!	!	!	!	!	!	!LO:TX:Z=12:t=MS&colon; m g' f'	!
2AA	Je-	.	.	1.A	-mi-	4g	.
.	.	.	.	.	.	4f	.
1AA	-sum	.	.	.	.	1e	-mi-
=28	=28	=28-	=28	=28	=28	=28	=28
1BB-	Chris-	0.d	-mi-	2F	-num	1d	-num
.	.	.	.	2.G	.	.	.
0GG	.	.	.	.	.	1r	.
.	.	.	.	4F	.	.	.
.	.	.	.	1D	.	.	.
.	.	.	.	.	.	2G	Je-
.	.	.	.	2B-	Je-	2G	-sum
=29	=29	=29-	=29	=29	=29	=29	=29
1GG	-tum,	0.B-	-num	2B-	-sum	2.d	Chris-
.	.	.	.	2B-	Chris-	.	.
.	.	.	.	.	.	4e	.
1r	.	.	.	2B-	-tum,	2f	.
.	.	.	.	1G	.	1g	.
1G	fi-	.	.	.	.	.	.
.	.	.	.	[2d	fi-	2f	.
=30	=30	=30-	=30	=30	=30	=30	=30
1G	-li-	0.G	Je-	2d]	.	1d	-tum,
.	.	.	.	1e-X	.	.	.
0E-	-um	.	.	.	.	1r	.
.	.	.	.	2c	.	.	.
.	.	.	.	2c	-li-	1g	fi-
.	.	.	.	2B-	.	.	.
=31	=31	=31	=31	=31	=31	=31	=31
!	!	!LO:N:vis=1.	!	!	!	!	!
1.D	de-	[y0.A	-sum	1d	-um	2.f	-li-
.	.	.	.	.	.	4d	.
.	.	.	.	1r	.	2f	.
2C	.	.	.	.	.	1e	-um
1AA	-i	.	.	1r	.	.	.
.	.	.	.	.	.	[2a	de-
=32	=32	=32-	=32	=32	=32	=32	=32
1r	.	0.A_yy	.	1D	de-	4a]	.
.	.	.	.	.	.	4g	.
.	.	.	.	.	.	2f	.
1r	.	.	.	2C	.	2e	.
.	.	.	.	2D	.	1d	-i
1D	u-	.	.	2.F	.	.	.
.	.	.	.	.	.	[2a	u-
.	.	.	.	4G	.	.	.
=33	=33	=33-	=33	=33	=33	=33	=33
2F	.	0.A]yy	.	2A	.	2a]	.
2G	-ni-	.	.	1.d	.	2g	-ni-
1D	-ge-	.	.	.	.	2f	-ge-
.	.	.	.	.	.	4e	.
.	.	.	.	.	.	4d	.
!	!	!	!	!	!	!LO:TX:Z=12:t=MS&colon; sb	!
1F	.	.	.	2c	-i	2c	.
.	.	.	.	[2c	u-	2f	.
=34	=34	=34-	=34	=34	=34	=34	=34
1.C	.	0.G	Chris-	2c]	.	2g	.
.	.	.	.	2c	-ni-	2.e-Xi	.
.	.	.	.	2c	-ge-	.	.
.	.	.	.	.	.	4d	.
2D	.	.	.	2B-	.	1d	.
1E-	-ni-	.	.	1G	.	.	.
.	.	.	.	.	.	2c	-ni-
=35	=35	=35-	=35	=35	=35	=35	=35
!	!	!LO:N:vis=1	!	!	!	!	!
0.D	-tum.	[y0.F	-tum,	2A	.	1d	-tum.
.	.	.	.	2B-	.	.	.
.	.	.	.	2A	.	1r	.
.	.	.	.	2.d	.	.	.
.	.	.	.	.	.	1d	Et
.	.	.	.	4c	.	.	.
.	.	.	.	2B-	-ni-	.	.
=36	=36	=36-	=36	=36	=36	=36	=36
2r	.	0.F]yy	.	1A	-tum.	2c	ex
2D	Et	.	.	.	.	1A	pa-
1D	ex	.	.	2r	.	.	.
.	.	.	.	1D	Et	1d	.
2BB-	pa-	.	.	.	.	.	.
2AA	.	.	.	2A	ex	2c	.
=37	=37	=37	=37	=37	=37	=37	=37
!	!	!LO:N:vis=1	!	!	!	!	!
2.BB-	.	[y0.D	.	2F	pa-	2d	.
.	.	.	.	2B-	.	1f	.
4C	.	.	.	.	.	.	.
2D	.	.	.	1A	.	.	.
2Eni	-tre	.	.	.	.	2e	.
2.F	na-	.	.	[1d	.	2d	.
.	.	.	.	.	.	[2f	.
4G	.	.	.	.	.	.	.
=38	=38	=38-	=38	=38	=38	=38	=38
1A	-tum	0.D]yy	.	2d]	.	2f]	.
.	.	.	.	2c	.	2g	.
1.F	an-	.	.	1A	-tre	1a	-tre
.	.	.	.	2r	.	2.f	na-
2D	.	.	.	2B-	na-	.	.
.	.	.	.	.	.	4g	.
=39	=39	=39-	=39	=39	=39	=39	=39
1D	-te	0.r	.	2A	.	2a	.
.	.	.	.	1d	-tum	2.b-	.
2r	.	.	.	.	.	.	.
.	.	.	.	.	.	4a	.
2F	om-	.	.	2c	an-	1a	.
1G	-ni-	.	.	1B-	-te	.	.
.	.	.	.	.	.	2g	.
=40	=40	=40-	=40	=40	=40	=40	=40
0F	-a	0.D	an-	1A	om-	1a	-tum
.	.	.	.	2A	-ni-	1r	.
.	.	.	.	1d	-a	.	.
[1D	se-	.	.	.	.	1A	an-
.	.	.	.	4c	.	.	.
.	.	.	.	4B-	.	.	.
=41	=41	=41-	=41	=41	=41	=41	=41
0.D]	.	0.F	-te	1A	.	2A	-te
!	!	!	!	!	!	!LO:TX:Z=12:t=MS&colon; c'	!
.	.	.	.	.	.	1d	om-
.	.	.	.	1.B-	se-	.	.
.	.	.	.	.	.	2.f	-ni-
.	.	.	.	.	.	4d	.
.	.	.	.	2A	.	2f	.
=42	=42	=42-	=42	=42	=42	=42	=42
1C	.	0.G	om-	1c	-cu-	1e	-a
0BB-	-cu-	.	.	1d	-la.	2.g	se-
.	.	.	.	.	.	4f	.
.	.	.	.	1r	.	1d	-cu-
=43	=43	=43	=43	=43	=43	=43	=43
!	!	!LO:N:vis=1.	!	!	!	!	!
0.AA	-la.	[y0.A	-ni-	2A	De-	1c	-la.
.	.	.	.	2.c	-um	.	.
.	.	.	.	.	.	2r	.
.	.	.	.	4d	.	.	.
.	.	.	.	1e	.	2A	De-
.	.	.	.	.	.	2.c	-um
.	.	.	.	2f	de	.	.
.	.	.	.	.	.	4d	.
=44	=44	=44-	=44	=44	=44	=44	=44
2r	.	0.A_yy	.	2e	de-	2e	.
2D	De-	.	.	2d	.	2f	de
2C	-um	.	.	1.e	-o,	2e	de-
1AA	de	.	.	.	.	1c	-o,
2D	de-	.	.	2d	lu-	2f	lu-
=45	=45	=45-	=45	=45	=45	=45	=45
2C	-o,	0.A]yy	.	2e	-men	2e	-men
1F	lu-	.	.	2c	.	2.a	de
.	.	.	.	1d	.	.	.
.	.	.	.	.	.	4g	.
2G	-men	.	.	.	.	1g	lu-
1D	de	.	.	2r	.	.	.
.	.	.	.	2d	de	2f#Xi	.
=46	=46	=46-	=46	=46	=46	=46	=46
!	!	!LO:N:vis=1.	!	!	!	!	!
2GG	lu-	[y0.G	-a	2B-	lu-	2g	.
2.C	.	.	.	2.G	.	2.e-Xi	.
4AA	.	.	.	4F	.	4d	.
2BB-	.	.	.	2D	.	1d	.
1C	-mi-	.	.	1E-Xi	-mi-	.	.
.	.	.	.	.	.	2c	-mi-
=47	=47	=47-	=47	=47	=47	=47	=47
0GG	-ne,	0.G_yy	.	1D	-ne,	1d	-ne,
.	.	.	.	2E-Xi	de-	1r	.
.	.	.	.	1G	.	.	.
1r	.	.	.	.	.	1d	de-
.	.	.	.	2B-	.	.	.
=48	=48	=48-	=48	=48	=48	=48	=48
1C	de-	0.G]yy	.	2c	-um	2e-Xi	-um
.	.	.	.	1e-X	.	1g	.
2E-	-um	.	.	.	.	.	.
2F	.	.	.	2d	ve-	2f	ve-
1G	ve-	.	.	2B-	.	2d	.
.	.	.	.	4A	.	2eni	.
.	.	.	.	4G	.	.	.
=49	=49	=49	=49	=49	=49	=49	=49
!	!	!LO:N:vis=1	!	!	!	!	!
1.D	.	[y0.d	se-	1A	-rum	2.f	.
.	.	.	.	.	.	4g	.
!	!	!	!	!LO:TX:Z=12:t=MS&colon; sb r	!	!	!
.	.	.	.	2r	.	2a	.
1G	.	.	.	2G	de	1b-	-rum
.	.	.	.	2G	de-	.	.
2F	.	.	.	[2A	-o	2a	de
=50	=50	=50-	=50	=50	=50	=50	=50
0.D	-rum	0.d]yy	.	2A]	.	2f	de-
.	.	.	.	2B-	ve-	2g	-o
.	.	.	.	2A	.	2a	ve-
.	.	.	.	1F	-ro.	2b-	.
.	.	.	.	.	.	2a	.
.	.	.	.	2G	Ge-	4g	.
.	.	.	.	.	.	4f	.
=51	=51	=51-	=51	=51	=51	=51	=51
0.AA	Ge-	0.c	.	1.A	.	1e	-ro.
!	!	!	!	!	!	!LO:TX:Z=16:t=MS&colon; m r	!
.	.	.	.	.	.	1r	.
.	.	.	.	4G	-ni-	.	.
.	.	.	.	4F	.	.	.
.	.	.	.	1E	-tum,	2a	Ge-
.	.	.	.	.	.	2g	-ni-
=52	=52	=52-	=52	=52	=52	=52	=52
0.BB-	-ni-	0.d	-cu-	1D	non	2f	-tum,
.	.	.	.	.	.	2f	non
.	.	.	.	2F	fac-	2.d	fac-
.	.	.	.	2G	.	.	.
.	.	.	.	.	.	4e	.
.	.	.	.	2F	.	2f	.
.	.	.	.	[2B-	-tum,	[2g	.
=53	=53	=53-	=53	=53	=53	=53	=53
1GG	-tum,	0.B-	-la.	4B-]	.	2g]	.
.	.	.	.	4c	.	.	.
.	.	.	.	2d	con-	2f	.
0G	non	.	.	2G	-sub-	2e-Xi	.
.	.	.	.	1.d	-stan-	2d	.
.	.	.	.	.	.	1d	-tum,
=54	=54	=54-	=54	=54	=54	=54	=54
1.E-	fac-	0.G	Ge-	1.e-Xi	-ti-	2r	.
.	.	.	.	.	.	2G	con-
.	.	.	.	.	.	2.B-	-sub-
2F	.	.	.	2d	-a-	.	.
.	.	.	.	.	.	4c	.
1G	.	.	.	[1d	-lem	2d	-stan-
.	.	.	.	.	.	2e	-ti-
=55	=55	=55	=55	=55	=55	=55	=55
!	!	!LO:N:vis=1.	!	!	!	!	!
2D	.	[y0.A	-ni-	1d]	.	2f	-a-
4C	.	.	.	.	.	4e	.
4BB-	.	.	.	.	.	4d	.
1AA	-tum,	.	.	1r	.	2c	-lem
.	.	.	.	.	.	2f	pa-
1r	.	.	.	1c	pa-	2e	.
.	.	.	.	.	.	[2a	-tri,
=56	=56	=56-	=56	=56	=56	=56	=56
0D	per	0.A_yy	.	1.d	-tri,	2a]	.
.	.	.	.	.	.	2.f	per
.	.	.	.	.	.	4d	.
.	.	.	.	2B-	per	2f	.
2C	quem	.	.	1c	quem	2e	quem
[2AA	om-	.	.	.	.	[2a	om-
=57	=57	=57-	=57	=57	=57	=57	=57
!	!	!	!	!LO:TX:Z=12:t=MS&colon; m	!	!	!
4AA]	.	0.A]yy	.	1c	om-	2a]	.
4BB-	.	.	.	.	.	.	.
2C	-ni-	.	.	.	.	2g	-ni-
1D	-a	.	.	2A	-ni-	2f	-a
.	.	.	.	1F	-a	4e	.
.	.	.	.	.	.	4d	.
1F	.	.	.	.	.	2c	.
.	.	.	.	2D	fac-	2f	fac-
=58	=58	=58-	=58	=58	=58	=58	=58
!	!	!LO:N:vis=1.	!	!	!	!	!
2C	.	[y0.G	-tum,	2E	.	2e	.
2GG	.	.	.	2.G	.	2.d	.
2BB-	.	.	.	.	.	.	.
.	.	.	.	4F	.	4c	.
2C	.	.	.	2E	.	1c	.
1GG	.	.	.	1D	.	.	.
.	.	.	.	.	.	2Bni	.
=59	=59	=59-	=59	=59	=59	=59	=59
2r	.	0.G_yy	.	1C	.	2c	.
2C	fac-	.	.	.	.	2.e-Xi	.
2GG	.	.	.	1D	.	.	.
.	.	.	.	.	.	4d	.
2BB-	.	.	.	.	.	1d	.
1C	-ta	.	.	1E-Xi	-ta	.	.
.	.	.	.	.	.	2c	-ta
=60	=60	=60-	=60	=60	=60	=60	=60
0GG	sunt.	0.G]yy	.	1D	sunt.	0d	sunt.
.	.	.	.	1r	.	.	.
[1G	Qui	.	.	1d	Qui	2r	.
.	.	.	.	.	.	[2g	Qui
=61	=61	=61	=61	=61	=61	=61	=61
!	!	!LO:N:vis=1.	!	!	!	!	!
2G]	.	0.r	.	2B-	prop-	2g]	.
2A	prop-	.	.	2c	.	2e	prop-
2D	-ter	.	.	1d	-ter	2f	.
1G	.	.	.	.	.	1d	-ter
.	.	.	.	2B-	nos	.	.
2D	nos	.	.	2A	.	2f	nos
=62	=62	=62-	=62	=62	=62	=62	=62
2E-	ho-	0.ryy	.	2G	ho-	2g	ho-
1F	.	.	.	1c	.	2.a	.
.	.	.	.	.	.	4g	.
2G	.	.	.	2B-	-mi-	1g	.
1D	-mi-	.	.	1A	-nes,	.	.
.	.	.	.	.	.	2f#Xi	-mi-
=63	=63	=63-	=63	=63	=63	=63	=63
1GG	-nes,	0.ryy	.	2r	.	1g	-nes,
.	.	.	.	2G	et	.	.
2r	.	.	.	2F	prop-	2r	.
!LO:TX:Z=12:t=MS&colon; c B	!	!	!	!	!	!	!
4BB-	et	.	.	2B-	-ter	2d	et
4AA	.	.	.	.	.	.	.
2FF	prop-	.	.	2A	nos-	2c	prop-
2GG	-ter	.	.	2G	.	2e-X	-ter
=64	=64	=64-	=64	=64	=64	=64	=64
!	!	!LO:N:vis=0.	!	!	!	!	!
2BB-	nos-	0.r	.	2.F	-tram	2d	nos-
2FF	.	.	.	.	.	2c	.
.	.	.	.	4E	.	.	.
1GG	-tram	.	.	2D	.	2.B-	-tram
.	.	.	.	2.G	sa-	.	.
.	.	.	.	.	.	4A	.
2C	sa-	.	.	.	.	2G	.
.	.	.	.	4E	.	.	.
2BB-	.	.	.	2F	.	[2d	sa-
=65	=65	=65-	=65	=65	=65	=65	=65
1GG	-lu-	0.ryy	.	2G	-lu-	4d]	.
.	.	.	.	.	.	4c	.
.	.	.	.	2.B-	.	2.d	-lu-
1G	.	.	.	.	.	.	.
.	.	.	.	4A	.	4c	.
.	.	.	.	1G	.	2B-	.
1D	-tem,	.	.	.	.	1A	.
.	.	.	.	2F#Xi	.	.	.
=66	=66	=66-	=66	=66	=66	=66	=66
2r	.	0.ryy	.	0.G	-tem,	1G	-tem,
2GG	de-	.	.	.	.	.	.
2C	-scen-	.	.	.	.	1r	.
2BB-	.	.	.	.	.	.	.
1GG	-dit,	.	.	.	.	1B-	de-
=67	=67	=67	=67	=67	=67	=67	=67
1r	.	0.ryy	.	2r	.	2A	-scen-
.	.	.	.	1B-	de-	2G	.
1r	.	.	.	.	.	2B-	.
.	.	.	.	2A	-scen-	2c	.
1G	de-	.	.	2G	.	1d	-dit
.	.	.	.	2B-	.	.	.
=68	=68	=68-	=68	=68	=68	=68	=68
2F	-scen-	0.ryy	.	2c	.	2r	.
1D	.	.	.	1d	-dit	1f	de
2C	.	.	.	2r	.	2e	.
1D	-dit	.	.	1f	de	2d	.
.	.	.	.	.	.	2f	.
=69	=69	=69-	=69	=69	=69	=69	=69
2r	.	0.ryy	.	2e-Xi	ce-	2g	.
1F	de	.	.	2d	.	2.a	ce-
.	.	.	.	2c	.	.	.
.	.	.	.	.	.	4g	.
1G	ce-	.	.	2B-	.	2.b-	.
.	.	.	.	2.e-Xi	.	.	.
.	.	.	.	.	.	4a	.
[2C	.	.	.	.	.	4g	.
.	.	.	.	4d	.	4f	.
=70	=70	=70-	=70	=70	=70	=70	=70
2C]	.	0.ryy	.	2c	.	2e-Xi	.
1GG	.	.	.	2B-	.	1d	.
.	.	.	.	1G	.	.	.
1G	.	.	.	.	.	2e-Xi	.
.	.	.	.	2B-	.	2d	.
2F	.	.	.	2A	.	2f	.
=71	=71	=71-	=71	=71	=71	=71	=71
1G	.	0.ryy	.	2G	.	2e-Xi	.
.	.	.	.	2B-	.	2d	.
2D	.	.	.	1d	.	2f	.
1F	.	.	.	.	.	2.a	.
.	.	.	.	2c	.	.	.
.	.	.	.	.	.	4g	.
2G	.	.	.	2B-	.	[2g	.
=72	=72	=72-	=72	=72	=72	=72	=72
1D	.	0.ryy	.	1A	.	2g]	.
.	.	.	.	.	.	2f#Xi	.
0GGl	-lis.	.	.	0Gl	-lis.	0gl	-lis.
*	*	*rscale:1	*	*	*	*	*
!!LO:LB:i:g=z
=73||	=73||	=73||	=73||	=73||	=73||	=73||	=73||
*>B	*>B	*>B	*>B	*>B	*>B	*>B	*>B
*clefF4	*	*clefGv2	*	*clefGv2	*	*clefG2	*
*k[b-e-]	*	*k[b-]	*	*k[b-]	*	*k[b-]	*
*M3/1	*	*M3/1	*	*M3/1	*	*M3/1	*
*met(O|)	*	*met(O|)	*	*met(O|)	*	*met(O|)	*
*MM400	*	*MM400	*	*MM400	*	*MM400	*
!!section: Et incarnatus est
!!!OMD: Et incarnatus est
0.r	.	0.r	.	1.G	Et	0g	Et
.	.	.	.	2A	.	.	.
.	.	.	.	1B-	in-	1g	in-
=74	=74	=74	=74	=74	=74	=74	=74
0.r	.	0.r	.	1c	-car-	1g	-car-
.	.	.	.	0d	-na-	1.f	-na-
.	.	.	.	.	.	2d	.
=75	=75	=75	=75	=75	=75	=75	=75
0.r	.	0.r	.	1c	-tus	1e	-tus
.	.	.	.	2B-	est	1.d	est
.	.	.	.	1d	.	.	.
.	.	.	.	4c	.	2e	.
.	.	.	.	4B-	.	.	.
=76	=76	=76	=76	=76	=76	=76	=76
0.r	.	0.r	.	1A	.	1f	.
.	.	.	.	2G	de	1g	de
.	.	.	.	2E	.	.	.
.	.	.	.	1D	spi-	2f	spi-
.	.	.	.	.	.	[2d	.
=77	=77	=77	=77	=77	=77	=77	=77
0.r	.	0.r	.	2F	.	2d]	.
.	.	.	.	2G	.	2B-	.
.	.	.	.	2A	.	2c	.
.	.	.	.	2B-	.	1d	.
.	.	.	.	1G	.	.	.
.	.	.	.	.	.	2G	.
=78	=78	=78	=78	=78	=78	=78	=78
0.r	.	0.r	.	2F	.	1A	.
.	.	.	.	1D	.	.	.
.	.	.	.	.	.	2B-	.
.	.	.	.	2E	.	1c	.
.	.	.	.	1C	.	.	.
.	.	.	.	.	.	[2G	.
=79	=79	=79	=79	=79	=79	=79	=79
0.r	.	0.r	.	2.G	.	2G]	.
.	.	.	.	.	.	2B-	.
.	.	.	.	4D	.	.	.
.	.	.	.	2E	.	2c	.
.	.	.	.	2F	.	1d	.
.	.	.	.	1G	-ri-	.	.
.	.	.	.	.	.	2e	-ri-
=80	=80	=80	=80	=80	=80	=80	=80
0.r	.	0.r	.	2A	-tu	1f	-tu
.	.	.	.	2B-	.	.	.
.	.	.	.	1c	.	2e	sanc-
.	.	.	.	.	.	1g	.
.	.	.	.	2B-	sanc-	.	.
.	.	.	.	[2d	.	2f	.
=81	=81	=81	=81	=81	=81	=81	=81
0.r	.	0.r	.	2d]	.	2d	.
.	.	.	.	2c	.	2e-Xi	.
.	.	.	.	2B-	.	2d	.
.	.	.	.	4A	.	4c	.
.	.	.	.	4G	.	4B-	.
.	.	.	.	2.F#Xi	.	1A	.
.	.	.	.	4E	.	.	.
=82	=82	=82	=82	=82	=82	=82	=82
0.r	.	0.r	.	0G	-to	0.G	-to
.	.	.	.	1r	.	.	.
=83	=83	=83	=83	=83	=83	=83	=83
0.r	.	0.r	.	1G	ex	1r	.
.	.	.	.	2F	Ma-	1r	.
.	.	.	.	2F	-ri-	.	.
.	.	.	.	1B-	-a	1d	ex
=84	=84	=84	=84	=84	=84	=84	=84
0.r	.	0.r	.	1A	.	2c	Ma-
.	.	.	.	.	.	2c	-ri-
.	.	.	.	2r	.	1f	-a
.	.	.	.	1d	vir-	.	.
.	.	.	.	.	.	1e	.
.	.	.	.	2c	.	.	.
=85	=85	=85	=85	=85	=85	=85	=85
0.r	.	0.r	.	2B-	.	2r	.
.	.	.	.	4A	.	1d	vir-
.	.	.	.	4G	.	.	.
.	.	.	.	2F	.	.	.
.	.	.	.	1A	.	2c	.
.	.	.	.	.	.	1B-	.
.	.	.	.	2G	.	.	.
=86	=86	=86	=86	=86	=86	=86	=86
0.r	.	0.r	.	2F	.	2A	.
.	.	.	.	2D	.	1d	.
.	.	.	.	1E	.	.	.
.	.	.	.	.	.	2c	.
.	.	.	.	1D	-gi-	2d	.
.	.	.	.	.	.	2f	.
=87	=87	=87	=87	=87	=87	=87	=87
0.r	.	0.r	.	1C	-ne,-	2e	.
.	.	.	.	.	.	2.g	.
.	.	.	.	2.G	-vir-	.	.
.	.	.	.	.	.	4f	.
.	.	.	.	.	.	2d	.
.	.	.	.	4F	.	.	.
.	.	.	.	2A	.	2c	.
.	.	.	.	[2G	.	2e	.
=88	=88	=88	=88	=88	=88	=88	=88
0.r	.	0.r	.	2G]	.	2.d	.
.	.	.	.	2E	.	.	.
.	.	.	.	.	.	8cL	.
.	.	.	.	.	.	8B-J	.
.	.	.	.	2F	.	2A	.
.	.	.	.	2G	.	1G	.
.	.	.	.	2E	.	.	.
.	.	.	.	2D	.	[2B-	.
=89	=89	=89	=89	=89	=89	=89	=89
0.r	.	0.r	.	1.G	.	2B-]	.
.	.	.	.	.	.	2.e-X	.
.	.	.	.	.	.	4d	.
.	.	.	.	2F	.	1d	.
.	.	.	.	1E-Xi	-gi-	.	.
.	.	.	.	.	.	2c	-gi-
=90	=90	=90	=90	=90	=90	=90	=90
0.r	.	0.r	.	0D	-ne:	1d	-ne:
.	.	.	.	.	.	2r	.
.	.	.	.	.	.	2f	Et
.	.	.	.	2r	.	2f	ho-
.	.	.	.	2d	Et	2f	-mo
=91	=91	=91	=91	=91	=91	=91	=91
0.r	.	0.r	.	2c	ho-	2g	fac-
.	.	.	.	2c	-mo	4f	-tus
.	.	.	.	.	.	4e	.
.	.	.	.	2B-	fac-	1d	est,
.	.	.	.	4A	-tus	.	.
.	.	.	.	4G	.	.	.
.	.	.	.	1F	est,-	2r	.
.	.	.	.	.	.	[2f	et
=92	=92	=92	=92	=92	=92	=92	=92
0.r	.	0.r	.	1D	.	4f]	.
.	.	.	.	.	.	4d	.
.	.	.	.	.	.	2f	ho-
.	.	.	.	2r	.	2e	-mo
.	.	.	.	2G	-et	2.d	fac-
.	.	.	.	1G	ho-	.	.
.	.	.	.	.	.	4c	.
.	.	.	.	.	.	4B-	-tus
.	.	.	.	.	.	4A	.
=93	=93	=93	=93	=93	=93	=93	=93
0.r	.	0.r	.	1F	-mo,-	1A	est,-
.	.	.	.	1D	.	2r	.
.	.	.	.	.	.	2d	-et
.	.	.	.	2r	.	2d	ho-
.	.	.	.	2G	-et	4c	.
.	.	.	.	.	.	4B-	.
=94	=94	=94	=94	=94	=94	=94	=94
0.r	.	0.r	.	2F	ho-	2A	.
.	.	.	.	2E	.	1G	-mo
.	.	.	.	1C	-mo	.	.
.	.	.	.	.	.	2.c	fac-
.	.	.	.	1D	fac-	.	.
.	.	.	.	.	.	4A	.
.	.	.	.	.	.	2B-	.
=95	=95	=95	=95	=95	=95	=95	=95
0.r	.	0.r	.	2C	.	2c	.
.	.	.	.	2F	.	2d	.
.	.	.	.	2G	.	2B-	.
.	.	.	.	2E	.	1c	.
.	.	.	.	1F	.	.	.
.	.	.	.	.	.	2d	.
=96	=96	=96	=96	=96	=96	=96	=96
0.r	.	0.r	.	2G	.	2e	.
.	.	.	.	2A	.	2.f	.
.	.	.	.	2.B-	.	.	.
.	.	.	.	.	.	4e	.
.	.	.	.	.	.	2.g	.
.	.	.	.	4A	.	.	.
.	.	.	.	2c	.	.	.
.	.	.	.	.	.	4f	.
.	.	.	.	2B-	.	[2d	.
=97	=97	=97	=97	=97	=97	=97	=97
0.r	.	0.r	.	1G	.	2d]	.
.	.	.	.	.	.	2B-	.
.	.	.	.	2E	-tus	1c	-tus
.	.	.	.	1F	.	.	.
.	.	.	.	.	.	1d	est,-
.	.	.	.	[2D	est,-	.	.
=98	=98	=98	=98	=98	=98	=98	=98
0.r	.	0.r	.	2D]	.	2B-	-et
.	.	.	.	2C	-et	1c	ho-
.	.	.	.	1F	ho-	.	.
.	.	.	.	.	.	2A	.
.	.	.	.	2G	-mo	2G	.
.	.	.	.	[2G	fac-	2B-	.
=99	=99	=99	=99	=99	=99	=99	=99
0.r	.	0.r	.	2G]	.	1A	-mo
.	.	.	.	2F	.	.	.
.	.	.	.	1G	.	2G	fac-
.	.	.	.	.	.	2B-	.
.	.	.	.	1C	.	2A	.
.	.	.	.	.	.	[2G	.
=100	=100	=100	=100	=100	=100	=100	=100
0.r	.	0.r	.	1G	.	2G]	.
.	.	.	.	.	.	2B-	.
.	.	.	.	2F	.	2A	.
.	.	.	.	[1.G	.	2G	.
.	.	.	.	.	.	2B-	.
.	.	.	.	.	.	[2e-X	.
=101	=101	=101	=101	=101	=101	=101	=101
0.r	.	0.r	.	2G]	.	2e-]	.
.	.	.	.	2F	.	1d	.
.	.	.	.	2E	.	.	.
.	.	.	.	2C	.	1c	.
.	.	.	.	1D	-tus	.	.
.	.	.	.	.	.	2Bni	-tus
=102	=102	=102	=102	=102	=102	=102	=102
0.r	.	0.r	.	0.Cl	est.	0.cl	est.
!!LO:LB:i:g=z
=103||	=103||	=103||	=103||	=103||	=103||	=103||	=103||
*>C	*>C	*>C	*>C	*>C	*>C	*>C	*>C
*clefF4	*	*clefGv2	*	*clefGv2	*	*clefG2	*
*k[b-e-]	*	*k[b-]	*	*k[b-]	*	*k[b-]	*
*M2/1	*	*M2/1	*	*M2/1	*	*M2/1	*
*met(O2)	*	*met(C.)	*	*met(O2)	*	*met(O2)	*
*MM480	*	*MM480	*	*MM480	*	*MM480	*
*	*	*rscale:1/8	*	*	*	*	*
!!section: Crucifixus
!!!OMD: Crucifixus
!	!	!LO:TX:Z=24:X=-60:t=``Tenor in quadruplo crescat sed clausulando decrescat.	!	!	!	!	!
!	!	!LO:TX:Z=4:X=-40:t=Sed inter binas minimas prima alteratur aut expressior sine posituras''	!	!	!	!	!
!	!	!LO:TX:Y=24:X=-40:t=[Aug. at decr. lev. in suc. phrases; begins w/ 3 levels. T must alter first note in pairs of minims]	!	!	!	!	!
!	!	!LO:N:vis=0	!	!	!	!	!
0r	.	0r	.	0c	Cru-	0r	.
=104.	=104	=104-	=104	=104.	=104	=104.	=104
0G	Cru-	0ryy	.	0B-	-ci-	0r	.
=105.	=105	=105-	=105	=105.	=105	=105.	=105
0F	-ci-	0ryy	.	0A	-fi-	0r	.
=106	=106	=106-	=106	=106	=106	=106	=106
0E-	-fi-	0ryy	.	0G	-xus	0g	Cru-
=107.	=107	=107-	=107	=107.	=107	=107.	=107
0D	-xus	0ryy	.	1.d	e-	0f	-ci-
.	.	.	.	2d	-ti-	.	.
=108.	=108	=108-	=108	=108.	=108	=108.	=108
1.A	e-	0ryy	.	0c	-am	0e	-fi-
!	!	!LO:N:vis=0	!	!	!	!	!
2A	-ti-	.	.	.	.	.	.
=109	=109	=109-	=109	=109	=109	=109	=109
1B-	-am	0ryy	.	1B-	pro	0d	-xus
1B-	pro	.	.	[1d	no-	.	.
=110.	=110	=110-	=110	=110.	=110	=110.	=110
0G	no-	0ryy	.	2d]	.	1r	.
.	.	.	.	2c	.	.	.
.	.	.	.	1B-	.	[1g	e-
=111.	=111	=111-	=111	=111.	=111	=111.	=111
0D	-bis,-	0ryy	.	1.A	.	2g]	.
.	.	.	.	.	.	2f	.
.	.	.	.	.	.	1f	-ti-
.	.	.	.	4G	.	.	.
.	.	.	.	4F	.	.	.
=112	=112	=112-	=112	=112	=112	=112	=112
1r	.	0ryy	.	1E	.	1g	-am
1D	-pro	.	.	1F	.	[1a	pro
=113.	=113	=113-	=113	=113.	=113	=113.	=113
1F	no-	0ryy	.	1D	.	2a]	.
.	.	.	.	.	.	2g	.
1G	.	.	.	1G	.	[1g	no-
=114.	=114	=114-	=114	=114.	=114	=114.	=114
0D	.	0ryy	.	0A	.	2g]	.
.	.	.	.	.	.	4f#Xi	.
.	.	.	.	.	.	4e	.
.	.	.	.	.	.	1f#Xi	.
=115	=115	=115	=115	=115	=115	=115	=115
!	!	!LO:N:vis=0	!	!	!	!	!
[0GG	-bis;	0r	.	[0G	-bis;	0g	-bis;
=116.	=116	=116-	=116	=116.	=116	=116.	=116
0GG_	.	0ryy	.	0G]	.	1r	.
.	.	.	.	.	.	1g	sub
=117.	=117	=117-	=117	=117.	=117	=117.	=117
0GG]	.	0ryy	.	1r	.	1.b-	Pon-
.	.	.	.	1G	sub	.	.
.	.	.	.	.	.	2a	-ti-
=118	=118	=118-	=118	=118	=118	=118	=118
0r	.	0ryy	.	1.B-	Pon-	1f	-o
.	.	.	.	.	.	1g	Pi-
.	.	.	.	2B-	-ti-	.	.
=119.	=119	=119-	=119	=119.	=119	=119.	=119
0r	.	0ryy	.	1.B-	-o	2f	-la-
.	.	.	.	.	.	1d	.
.	.	.	.	2A	Pi-	[2c	.
=120.	=120	=120-	=120	=120.	=120	=120.	=120
0r	.	0ryy	.	1F	.	2c]	.
.	.	.	.	.	.	1f	.
.	.	.	.	2A	.	.	.
.	.	.	.	2G	.	[2g	.
=121	=121	=121-	=121	=121	=121	=121	=121
0r	.	0ryy	.	1B-	-la-	2g]	.
.	.	.	.	.	.	2d	.
.	.	.	.	1G	.	2e	.
.	.	.	.	.	.	4d	.
.	.	.	.	.	.	4e	.
=122.	=122	=122-	=122	=122.	=122	=122.	=122
!	!	!	!	!LO:TX:Z=12:t=MS&colon; e	!	!	!
0r	.	0ryy	.	1F	-to	0f	-to
.	.	.	.	1B-	.	.	.
=123.	=123	=123-	=123	=123.	=123	=123.	=123
0r	.	0ryy	.	1A	pas-	1r	.
.	.	.	.	1B-	.	1d	pas-
=124	=124	=124-	=124	=124	=124	=124	=124
0r	.	0ryy	.	1c	.	1e	.
.	.	.	.	1d	-sus	1f	-sus
=125.	=125	=125-	=125	=125.	=125	=125.	=125
0r	.	0ryy	.	2G	et	1.g	et
.	.	.	.	1B-	.	.	.
.	.	.	.	2A	.	2f	.
=126.	=126	=126-	=126	=126.	=126	=126.	=126
0r	.	0ryy	.	1.G	se-	2e	se-
.	.	.	.	.	.	2d	.
.	.	.	.	.	.	2e	-pul-
.	.	.	.	2F	.	[2d	.
=127	=127	=127	=127	=127	=127	=127	=127
!	!	!LO:N:vis=0	!	!	!	!	!
0r	.	0r	.	1G	-pul-	2d]	.
.	.	.	.	.	.	2B-	.
.	.	.	.	2D	.	1A	.
.	.	.	.	2F	.	.	.
=128.	=128	=128-	=128	=128.	=128	=128.	=128
0r	.	0ryy	.	2E-Xi	.	2G	.
.	.	.	.	2D	.	1B-	.
.	.	.	.	[1G	.	.	.
.	.	.	.	.	.	[2e-X	.
=129.	=129	=129-	=129	=129.	=129	=129.	=129
0r	.	0ryy	.	2G]	.	4e-]	.
.	.	.	.	.	.	4d	.
.	.	.	.	2F	.	1d	.
.	.	.	.	1E-Xi	-tus	.	.
.	.	.	.	.	.	2c	-tus
=130	=130	=130-	=130	=130	=130	=130	=130
0r	.	0ryy	.	0D	est.	[0d	est.
=131.	=131	=131-	=131	=131.	=131	=131.	=131
0r	.	0ryy	.	1r	.	0d]	.
.	.	.	.	1G	Et	.	.
=132.	=132	=132-	=132	=132.	=132	=132.	=132
0r	.	0ryy	.	1F	re-	1r	.
.	.	.	.	1G	-sur-	1g	Et
=133	=133	=133-	=133	=133	=133	=133	=133
0r	.	0ryy	.	2A	-re-	1f	re-
.	.	.	.	1B-	.	.	.
.	.	.	.	.	.	1g	-sur-
.	.	.	.	4A	.	.	.
.	.	.	.	4G	.	.	.
=134.	=134	=134-	=134	=134.	=134	=134.	=134
0r	.	0ryy	.	2.F	.	1.a	-re-
.	.	.	.	4E	.	.	.
.	.	.	.	2F	.	.	.
.	.	.	.	[2G	.	[2b-	.
=135.	=135	=135-	=135	=135.	=135	=135.	=135
0r	.	0ryy	.	2G]	.	2b-]	.
.	.	.	.	2F	.	4a	.
.	.	.	.	.	.	4g	.
.	.	.	.	1D	-xit	2.f	.
!	!	!	!	!	!	!LO:TX:Z=12:t=MS&colon; g'	!
.	.	.	.	.	.	4e	.
=136	=136	=136-	=136	=136	=136	=136	=136
0r	.	0ryy	.	1r	.	2f	.
.	.	.	.	.	.	1g	.
.	.	.	.	2.G	ter-	.	.
.	.	.	.	.	.	2f	.
.	.	.	.	4A	.	.	.
=137.	=137	=137-	=137	=137.	=137	=137.	=137
0r	.	0ryy	.	2.B-	.	1d	-xit
.	.	.	.	4A	.	.	.
.	.	.	.	2B-	.	1r	.
.	.	.	.	[2c	.	.	.
=138.	=138	=138-	=138	=138.	=138	=138.	=138
0r	.	0ryy	.	2c]	.	2e	ter-
.	.	.	.	2B-	-ti-	2f	-ti-
.	.	.	.	1G	-a	2.g	-a
.	.	.	.	.	.	4f	.
=139	=139	=139	=139	=139	=139	=139	=139
!	!	!LO:N:vis=0	!	!	!	!	!
0r	.	0r	.	1r	.	2g	.
.	.	.	.	.	.	1a	.
.	.	.	.	2A	di-	.	.
.	.	.	.	2B-	.	2g	.
=140.	=140	=140-	=140	=140.	=140	=140.	=140
0r	.	0ryy	.	2.c	.	1e	.
.	.	.	.	4B-	.	.	.
.	.	.	.	2c	.	2e	di-
.	.	.	.	[2d	.	2d	.
=141.	=141	=141-	=141	=141.	=141	=141.	=141
0r	.	0ryy	.	2d]	.	2f	.
!	!	!	!	!LO:TX:Z=12:t=MS&colon; b	!	!	!
.	.	.	.	2c	.	2e	.
.	.	.	.	[1A	.	[1c	.
=142	=142	=142-	=142	=142	=142	=142	=142
0r	.	0ryy	.	2A]	.	2c]	.
.	.	.	.	2G	.	1d	.
.	.	.	.	2B-	.	.	.
.	.	.	.	2A	.	2c	.
=143.	=143	=143-	=143	=143.	=143	=143.	=143
0r	.	0ryy	.	1.F	.	1.A	.
.	.	.	.	[2G	.	2B-	.
=144.	=144	=144-	=144	=144.	=144	=144.	=144
0r	.	0ryy	.	2G]	.	2G	.
.	.	.	.	4F	.	1c	.
.	.	.	.	4E	.	.	.
.	.	.	.	1D	.	.	.
.	.	.	.	.	.	2Bni	.
=145	=145	=145-	=145	=145	=145	=145	=145
0r	.	0ryy	.	1C	-e	0c	-e
.	.	.	.	1r	.	.	.
=146.	=146	=146-	=146	=146.	=146	=146.	=146
0r	.	0ryy	.	1.c	se-	1r	.
.	.	.	.	.	.	[1g	se-
.	.	.	.	2B-	.	.	.
=147.	=147	=147-	=147	=147.	=147	=147.	=147
0r	.	0ryy	.	2c	.	2g]	.
.	.	.	.	2d	.	2f	.
.	.	.	.	[1c	-cun-	2g	.
.	.	.	.	.	.	2a	.
=148	=148	=148-	=148	=148	=148	=148	=148
0r	.	0ryy	.	2c]	.	1.g	-cun-
.	.	.	.	2B-	.	.	.
.	.	.	.	2c	.	.	.
.	.	.	.	2A	.	2f	.
=149.	=149	=149-	=149	=149.	=149	=149.	=149
0r	.	0ryy	.	1.G	-dum	2g	.
.	.	.	.	.	.	2e	.
.	.	.	.	.	.	[1d	-dum
.	.	.	.	2F	scrip-	.	.
=150.	=150	=150-	=150	=150.	=150	=150.	=150
0r	.	0ryy	.	2G	.	2d]	.
.	.	.	.	2A	.	2c	scrip-
.	.	.	.	[1B-	-tu-	2d	.
.	.	.	.	.	.	2e	.
=151	=151	=151	=151	=151	=151	=151	=151
!	!	!LO:N:vis=0	!	!	!	!	!
0r	.	0r	.	2B-]	.	1.f	-tu-
.	.	.	.	2A	.	.	.
.	.	.	.	2B-	.	.	.
.	.	.	.	2G	.	2e	.
=152.	=152	=152-	=152	=152.	=152	=152.	=152
0r	.	0ryy	.	1.F	.	2f	.
.	.	.	.	.	.	2d	.
.	.	.	.	.	.	[1c	.
.	.	.	.	2E	.	.	.
=153.	=153	=153-	=153	=153.	=153	=153.	=153
0r	.	0ryy	.	2F	.	2c]	.
.	.	.	.	2D	.	2B-	.
.	.	.	.	[1C	-ras.	2c	.
.	.	.	.	.	.	2A	.
=154	=154	=154-	=154	=154	=154	=154	=154
0r	.	0ryy	.	2C]	.	1.G	-ras.
.	.	.	.	2D	Et	.	.
.	.	.	.	2E	a-	.	.
.	.	.	.	2F	.	2A	Et
=155.	=155	=155-	=155	=155.	=155	=155.	=155
0r	.	0ryy	.	1.G	-scen-	2B-	a-
.	.	.	.	.	.	2c	.
.	.	.	.	.	.	[1d	-scen-
.	.	.	.	2A	.	.	.
=156.	=156	=156-	=156	=156.	=156	=156.	=156
0r	.	0ryy	.	2B-	.	2d]	.
.	.	.	.	2c	.	2e	.
.	.	.	.	1A	.	2f	.
.	.	.	.	.	.	2g	.
=157	=157	=157-	=157	=157	=157	=157	=157
0r	.	0ryy	.	1G	.	1e	.
.	.	.	.	2G	-dit	[1d	.
.	.	.	.	2F	.	.	.
=158.	=158	=158-	=158	=158.	=158	=158.	=158
0r	.	0ryy	.	1G	.	2d]	.
.	.	.	.	.	.	2e	.
.	.	.	.	1D	in	1f	-dit
=159.	=159	=159-	=159	=159.	=159	=159.	=159
0r	.	0ryy	.	1.G	ce-	2d	in
.	.	.	.	.	.	1e	ce-
.	.	.	.	2F	.	[2d	.
=160	=160	=160-	=160	=160	=160	=160	=160
0r	.	0ryy	.	1G	.	2d]	.
.	.	.	.	.	.	2g	.
.	.	.	.	2A	.	2f	.
.	.	.	.	2B-	.	[2g	.
=161.	=161	=161-	=161	=161.	=161	=161.	=161
0r	.	0ryy	.	2.c	.	2g]	.
.	.	.	.	.	.	1a	.
.	.	.	.	4B-	.	.	.
.	.	.	.	2c	.	.	.
.	.	.	.	[2d	.	2b-	.
=162.	=162	=162-	=162	=162.	=162	=162.	=162
0r	.	0ryy	.	2d]	.	2a	.
.	.	.	.	2B-	.	1g	.
.	.	.	.	1A	.	.	.
.	.	.	.	.	.	2f#Xi	.
=163	=163	=163	=163	=163	=163	=163	=163
!	!	!LO:N:vis=1	!	!	!	!	!
0GG	se-	0r	.	1G	-lum;	0g	-lum;
.	.	.	.	1r	.	.	.
=164.	=164	=164-	=164	=164.	=164	=164.	=164
0D	.	0ryy	.	0F#Xi	se-	0r	.
=165.	=165	=165-	=165	=165.	=165	=165.	=165
0GG	.	0ryy	.	1G	-det	0r	.
.	.	.	.	1G	ad	.	.
=166	=166	=166-	=166	=166	=166	=166	=166
0D	.	0ryy	.	1A	dex-	0f#X	se-
.	.	.	.	[1d	.	.	.
=167.	=167	=167-	=167	=167.	=167	=167.	=167
!	!	!LO:N:vis=2	!	!	!	!	!
0GG	-det	[y0G	Et	2d]	.	1g	-det
.	.	.	.	2c	.	.	.
.	.	.	.	[1B-	.	1g	ad
=168.	=168	=168-	=168	=168.	=168	=168.	=168
0r	.	0G]yy	.	2B-]	.	1d	dex-
.	.	.	.	2A	.	.	.
.	.	.	.	2G	-te-	1d	-te-
.	.	.	.	4F	.	.	.
.	.	.	.	4E	.	.	.
=169	=169	=169-	=169	=169	=169	=169	=169
!	!	!LO:N:vis=1	!	!	!	!	!
0F	ad	[y0d	i-	0D	-ram	0f	-ram
=170.	=170	=170-	=170	=170.	=170	=170.	=170
1G	dex-	0d_yy	.	0r	.	1B-	.
1G	-te-	.	.	.	.	1B-	pa-
=171.	=171	=171-	=171	=171.	=171	=171.	=171
1D	-ram	0d_yy	.	0A	pa-	1.f	.
1D	pa-	.	.	.	.	.	.
.	.	.	.	.	.	2g	.
=172	=172	=172-	=172	=172	=172	=172	=172
0F	-tris.	0d]yy	.	1D	-tris.	1a	-tris.
.	.	.	.	1F	Et	1a	Et
=173.	=173	=173-	=173	=173.	=173	=173.	=173
!	!	!LO:N:vis=2	!	!	!	!	!
1.BB-	Et	[y0d	-te-	1G	i-	1.b-	i-
.	.	.	.	1B-	.	.	.
2C	.	.	.	.	.	4a	.
.	.	.	.	.	.	4g	.
=174.	=174	=174-	=174	=174.	=174	=174.	=174
1D	i-	0d]yy	.	1A	.	1f	.
1GG	-te-	.	.	2G	-te-	1b-	-te-
.	.	.	.	[2G	-rum	.	.
=175	=175	=175	=175	=175	=175	=175	=175
!	!	!LO:N:vis=1	!	!	!	!	!
1AA	-rum	[y0c	-rum	2G]	.	1a	-rum
.	.	.	.	2F	.	.	.
[1C	.	.	.	[1E	.	[1g	.
=176.	=176	=176-	=176	=176.	=176	=176.	=176
1C]	.	0c_yy	.	2E]	.	1g]	.
.	.	.	.	2D	ven-	.	.
!LO:TX:Z=12:t=MS&colon; G	!	!	!	!	!	!	!
1FF	.	.	.	2F	.	[1a	ven-
.	.	.	.	2G	.	.	.
=177.	=177	=177-	=177	=177.	=177	=177.	=177
1r	.	0c_yy	.	1.A	-tu-	2a]	.
.	.	.	.	.	.	2b-	.
[1F	ven-	.	.	.	.	[1cc	-tu-
.	.	.	.	2G	.	.	.
=178	=178	=178-	=178	=178	=178	=178	=178
1F]	.	0c]yy	.	2A	.	2cc]	.
.	.	.	.	2B-	.	2b-	.
1C	.	.	.	[1c	.	2a	.
.	.	.	.	.	.	2g	.
=179.	=179	=179-	=179	=179.	=179	=179.	=179
!	!	!LO:N:vis=2	!	!	!	!	!
1.F	-tu-	[y0c	ven-	1c]	.	1.a	.
.	.	.	.	1A	-rus	.	.
2Eni	.	.	.	.	.	4g	.
.	.	.	.	.	.	4f	.
=180.	=180	=180-	=180	=180.	=180	=180.	=180
0C	-rus	0c]yy	.	0G	est	0e	-rus
=181	=181	=181-	=181	=181	=181	=181	=181
!	!	!LO:N:vis=1	!	!	!	!	!
1D	est	[y0A	-tu-	1r	.	0d	est
1D	cum	.	.	1d	cum	.	.
=182.	=182	=182-	=182	=182.	=182	=182.	=182
[0D	glo-	0A_yy	.	1.d	glo-	1r	.
.	.	.	.	.	.	1f	cum
.	.	.	.	4c	.	.	.
.	.	.	.	4B-	.	.	.
=183.	=183	=183-	=183	=183.	=183	=183.	=183
1D]	.	0A_yy	.	1A	.	1.f	glo-
2C	-ri-	.	.	1d	-ri-	.	.
2BB-	.	.	.	.	.	2f	-ri-
=184	=184	=184-	=184	=184	=184	=184	=184
0AA	-a	0A]yy	.	1.c	-a	1e	-a
.	.	.	.	.	.	[1a	ju-
.	.	.	.	2c	ju-	.	.
=185.	=185	=185-	=185	=185.	=185	=185.	=185
!	!	!LO:N:vis=2	!	!	!	!	!
1r	.	[y0A	-rus	1F	.	1a]	.
1C	ju-	.	.	1c	-di-	1g	-di-
=186.	=186	=186-	=186	=186.	=186	=186.	=186
1D	-di-	0A]yy	.	1A	-ca-	2f#Xi	-ca-
.	.	.	.	.	.	2e	.
1D	-ca-	.	.	[1d	-re	1f#Xi	.
=187	=187	=187	=187	=187	=187	=187	=187
!	!	!LO:N:vis=2	!	!	!	!	!
1GG	-re	([y0G	est	1d]	.	0g	-re
1C	vi-	.	.	1c	vi-	.	.
=188.	=188	=188-	=188	=188.	=188	=188.	=188
1BB-	-vos	0G_yy	.	1d	-vos	1.b-	vi-
[1E-	et	.	.	1B-	et	.	.
.	.	.	.	.	.	2a	.
=189.	=189	=189-	=189	=189.	=189	=189.	=189
!	!	!LO:N:vis=2	!	!	!	!	!
2E-]	.	(0G_y)	.	1.c	mor-	2g	.
2D	.	.	.	.	.	2f	.
[1C	mor-	.	.	.	.	[1e-Xi	-vos
.	.	.	.	2B-	.	.	.
=190	=190	=190-	=190	=190	=190	=190	=190
2C]	.	0G_yy	.	1G	-tu-	2e-]	.
2BB-	.	.	.	.	.	1d	et
1GG	.	.	.	1d	-os;	.	.
.	.	.	.	.	.	[2g	mor-
=191.	=191	=191-	=191	=191.	=191	=191.	=191
0C	-tu-	0G]y)	.	1r	.	2g]	.
.	.	.	.	.	.	2f	.
.	.	.	.	[1c	cu-	2.e	-tu-
.	.	.	.	.	.	4d	.
=192.	=192	=192-	=192	=192.	=192	=192.	=192
1FF	-os;	0F	cu-	1c]	.	0f	-os;
[1BB-	cu-	.	.	1F	-jus	.	.
=193	=193	=193-	=193	=193	=193	=193	=193
!	!	!LO:N:vis=1.	!	!	!	!	!
2BB-]	.	[y0D	-jus	1.B-	re-	1r	.
2C	.	.	.	.	.	.	.
2D	.	.	.	.	.	1f	cu-
2Eni	.	.	.	2c	.	.	.
=194.	=194	=194-	=194	=194.	=194	=194.	=194
1F	-jus	0D_yy	.	2d	.	1f	-jus
.	.	.	.	2e	.	.	.
!	!	!	!	!	!	!LO:TX:Z=12:t=MS&colon; e'	!
[1BB-	re-	.	.	1f	.	2f	re-
.	.	.	.	.	.	[2d	.
=195.	=195	=195-	=195	=195.	=195	=195.	=195
!	!	!	!	!LO:TX:Z=12:t=MS&colon; dotted sb a - m b	!	!	!
2BB-]	.	0D_yy	.	1.B-	-gni	2d]	.
2C	.	.	.	.	.	2c	.
2D	.	.	.	.	.	2B-	.
2Eni	.	.	.	2c	.	2A	.
=196	=196	=196-	=196	=196	=196	=196	=196
[0F	-gni	0D_yy	.	2d	.	1A	-gni
.	.	.	.	2e	.	.	.
.	.	.	.	1f	non	2A	non
.	.	.	.	.	.	[2B-	e-
=197.	=197	=197-	=197	=197.	=197	=197.	=197
!	!	!	!	!LO:TX:Z=12:t=MS&colon; e'	!	!	!
0F]	.	0D_yy	.	2f	e-	2B-]	.
.	.	.	.	1d	-rit	1A	-rit
.	.	.	.	2c	fi-	[2d	fi-
=198.	=198	=198-	=198	=198.	=198	=198.	=198
0r	.	0D]yy	.	2B-	.	2d]	.
.	.	.	.	4A	.	2c	.
.	.	.	.	4G	.	.	.
.	.	.	.	1F	.	2.Bni	.
.	.	.	.	.	.	4A	.
=199	=199	=199	=199	=199	=199	=199	=199
!	!	!LO:N:vis=1.	!	!	!	!	!
0r	.	[y0C	re-	1E	-nis.	0c	-nis.
.	.	.	.	[1A	Et	.	.
=200.	=200	=200-	=200	=200.	=200	=200.	=200
0r	.	0C_yy	.	2A]	.	1r	.
.	.	.	.	2G	in	.	.
.	.	.	.	[1G	spi-	1g	Et
=201.	=201	=201-	=201	=201.	=201	=201.	=201
0r	.	0C_yy	.	2G]	.	1e	in
.	.	.	.	2F	.	.	.
.	.	.	.	2E	-ri-	[1a	spi-
.	.	.	.	2D	.	.	.
=202	=202	=202-	=202	=202	=202	=202	=202
0r	.	0C_yy	.	1E	-tum	2a]	.
.	.	.	.	.	.	2g	.
.	.	.	.	1C	.	[1g	.
=203.	=203	=203-	=203	=203.	=203	=203.	=203
0G	sanc-	0C_yy	.	1r	.	2g]	.
.	.	.	.	.	.	2f	.
.	.	.	.	1G	sanc-	2.e	-ri-
.	.	.	.	.	.	4d	.
=204.	=204	=204-	=204	=204.	=204	=204.	=204
1C	.	0C]yy	.	0G	-tum,	1e	-tum
1E-	.	.	.	.	.	1c	.
=205	=205	=205-	=205	=205	=205	=205	=205
!	!	!LO:N:vis=1	!	!	!	!	!
1D	-tum,	[y0F	-gni	1A	do-	1r	.
1BB-	.	.	.	1B-	.	1d	sanc-
=206.	=206	=206-	=206	=206.	=206	=206.	=206
1r	.	0F_yy	.	1.c	.	2c	-tum,
.	.	.	.	.	.	1f	do-
1AA	do-	.	.	.	.	.	.
.	.	.	.	4B-	.	2e	.
.	.	.	.	4c	.	.	.
=207.	=207	=207-	=207	=207.	=207	=207.	=207
1.BB-	-mi-	0F_yy	.	2d	.	1.d	.
.	.	.	.	2c	.	.	.
.	.	.	.	2B-	-mi-	.	.
2C	.	.	.	2A	.	[2c	.
=208	=208	=208-	=208	=208	=208	=208	=208
0D	-num	0F]yy	.	1A	-num	2c]	.
.	.	.	.	.	.	2B-	.
.	.	.	.	[1d	et	1A	-mi-
=209.	=209	=209-	=209	=209.	=209	=209.	=209
!	!	!LO:N:vis=2	!	!	!	!	!
1r	.	[y0G	et	2d]	.	1G	-num
.	.	.	.	2c	vi-	.	.
1GG	et	.	.	[1B-	-vi-	1r	.
=210.	=210	=210-	=210	=210.	=210	=210.	=210
2GG	vi-	0G]yy	.	2B-]	.	1d	et
2GG	-vi-	.	.	2A	-fi-	.	.
1GG	-fi-	.	.	1G	-can-	1e	vi-
=211	=211	=211	=211	=211	=211	=211	=211
!	!	!LO:N:vis=1.	!	!	!	!	!
1.D	-can-	[y0A	vi-	0F	-tem;	2f	-vi-
.	.	.	.	.	.	2f	-fi-
.	.	.	.	.	.	[1f	-can-
4C	.	.	.	.	.	.	.
4BB-	.	.	.	.	.	.	.
=212.	=212	=212-	=212	=212.	=212	=212.	=212
1AA	.	0A_yy	.	1r	.	2f]	.
.	.	.	.	.	.	4e	.
.	.	.	.	.	.	4d	.
1AA	-tem;	.	.	1c	qui	1c	.
=213.	=213	=213-	=213	=213.	=213	=213.	=213
1D	.	0A_yy	.	1A	ex	1f	.
2C	qui	.	.	[1c	.	1e	-tem;
2C	ex	.	.	.	.	.	.
=214	=214	=214-	=214	=214	=214	=214	=214
1.F	pa-	0A_yy	.	1c]	.	2a	qui
.	.	.	.	.	.	2a	ex
.	.	.	.	1c	pa-	[1a	pa-
4Eni	.	.	.	.	.	.	.
4D	.	.	.	.	.	.	.
=215.	=215	=215-	=215	=215.	=215	=215.	=215
1C	.	0A_yy	.	0c	-tre	2a]	.
.	.	.	.	.	.	4g	.
.	.	.	.	.	.	4f	.
1C	-tre	.	.	.	.	1e	-tre
=216.	=216	=216-	=216	=216.	=216	=216.	=216
0C	fi-	0A]yy	.	1r	.	1r	.
.	.	.	.	1c	fi-	1e	fi-
=217	=217	=217-	=217	=217	=217	=217	=217
!	!	!LO:N:vis=1.	!	!	!	!	!
1BB-	-li-	[y0B-	-vi-	1d	-li-	1d	.
[1E-	-o-	.	.	1B-	-o-	[1g	.
=218.	=218	=218-	=218	=218.	=218	=218.	=218
1E-]	.	0B-_yy	.	1G	-que	1g]	.
1D	.	.	.	2r	.	1f	-li-
.	.	.	.	[2d	pro-	.	.
=219.	=219	=219-	=219	=219.	=219	=219.	=219
1.G	-que	0B-_yy	.	2d]	.	1.d	-o-
.	.	.	.	2G	.	.	.
.	.	.	.	2B-	.	.	.
2F	.	.	.	2c	.	2e	.
=220	=220	=220-	=220	=220	=220	=220	=220
1D	.	0B-_yy	.	1d	-ce-	1f	-que-
[1E-	pro-	.	.	[1G	.	[1g	-pro-
=221.	=221	=221-	=221	=221.	=221	=221.	=221
2E-]	.	0B-_yy	.	2G]	.	2g]	.
2D	.	.	.	2F	.	2a	.
[1BB-	-ce-	.	.	2D	.	[1b-	-ce-
.	.	.	.	2E	.	.	.
=222.	=222	=222-	=222	=222.	=222	=222.	=222
2BB-]	.	0B-]yy	.	1F	-dit,	2b-]	.
2C	.	.	.	.	.	4a	.
.	.	.	.	.	.	4g	.
2D	.	.	.	1BB-	.	2f	.
2Eni	.	.	.	.	.	2g	.
=223	=223	=223	=223	=223	=223	=223	=223
!	!	!LO:N:vis=1	!	!	!	!	!
1.F	.	[y0A	-fi-	1r	.	2a	.
.	.	.	.	.	.	2b-	.
.	.	.	.	[1F	pro-	1cc	.
2Eni	.	.	.	.	.	.	.
=224.	=224	=224-	=224	=224.	=224	=224.	=224
0D	.	0A_yy	.	2F]	.	2b-	.
.	.	.	.	2G	.	1a	.
.	.	.	.	1A	.	.	.
.	.	.	.	.	.	2g	.
=225.	=225	=225-	=225	=225.	=225	=225.	=225
1F	.	0A_yy	.	1D	.	2f	.
.	.	.	.	.	.	2.a	.
1G	.	.	.	1d	.	.	.
.	.	.	.	.	.	4g	.
.	.	.	.	.	.	[2g	.
=226	=226	=226-	=226	=226	=226	=226	=226
0D	-dit.	0A]yy	.	1d	-ce-	2g]	.
.	.	.	.	.	.	2f#Xi	.
.	.	.	.	[1d	-dit.	2f#Xi	.
.	.	.	.	.	.	2e	.
=227.	=227	=227-	=227	=227.	=227	=227.	=227
!	!	!LO:N:vis=2	!	!	!	!	!
1r	.	[y0G	-can-	2d]	.	0g	-dit.
.	.	.	.	2c	.	.	.
1GG	Qui	.	.	2B-	.	.	.
.	.	.	.	2A	.	.	.
=228.	=228	=228-	=228	=228.	=228	=228.	=228
1GG	cum	0G]yy	.	3%4GV	Qui	1r	.
1GG	pa-	.	.	.	.	1d	Qui
.	.	.	.	3%2B-Z	.	.	.
=229	=229	=229-	=229	=229	=229	=229	=229
!	!	!LO:N:vis=1	!	!	!	!	!
[0BB-	.	[y0F	-tem;	3%2B-V	cum	1d	cum
.	.	.	.	3%2.B-	pa-	.	.
.	.	.	.	.	.	[1d	pa-
.	.	.	.	3AZ	.	.	.
=230.	=230	=230-	=230	=230.	=230	=230.	=230
1BB-]	.	0F_yy	.	3%2FV	.	2d]	.
.	.	.	.	.	.	2c	.
.	.	.	.	3%4B-Z	.	.	.
2AA	.	.	.	.	.	1B-	.
2GG	.	.	.	.	.	.	.
=231.	=231	=231-	=231	=231.	=231	=231.	=231
0FF	-tre,-	0F_yy	.	3%2.cV	-tre,-	0A	-tre,-
.	.	.	.	3B-	.	.	.
.	.	.	.	3%2cZ	.	.	.
=232	=232	=232-	=232	=232	=232	=232	=232
1BB-	-Qui	0F]yy	.	3%2.dV	-Qui	1r	.
1BB-	cum	.	.	3c	.	1f	-Qui
.	.	.	.	3B-	.	.	.
.	.	.	.	3AZ	.	.	.
=233.	=233	=233-	=233	=233.	=233	=233.	=233
!	!	!LO:N:vis=2	!	!	!	!	!
[0BB-	pa-	[y0D	pa-	3%2FV	.	1f	cum
.	.	.	.	3%4B-Z	cum	.	.
.	.	.	.	.	.	[1f	pa-
=234.	=234	=234-	=234	=234.	=234	=234.	=234
!	!	!	!	!LO:TX:Z=20:t=MS&colon; a	!	!	!
0BB-]	.	0D]yy	.	3%2B-V	pa-	2f]	.
.	.	.	.	.	.	2e	.
.	.	.	.	3%2F	.	.	.
.	.	.	.	.	.	1d	.
.	.	.	.	3%2GZ	.	.	.
=235	=235	=235	=235	=235	=235	=235	=235
!	!	!LO:N:vis=1.	!	!	!	!	!
[0AA	-tre	[y0E	-tre	0A	-tre	3%4cV	-tre
.	.	.	.	.	.	3%2AZ	et
=236.	=236	=236-	=236	=236.	=236	=236.	=236
0AA_	.	0E_yy	.	1r	.	3%2cV	fi-
.	.	.	.	.	.	3%2d	.
.	.	.	.	1A	et	.	.
.	.	.	.	.	.	3%2eZ	.
=237.	=237	=237-	=237	=237.	=237	=237.	=237
0AA]	.	0E_yy	.	0A	fi-	3%2cV	.
.	.	.	.	.	.	3%2e	.
.	.	.	.	.	.	3%2fZ	.
=238	=238	=238-	=238	=238	=238	=238	=238
0r	.	0E_yy	.	0G	.	3%2.gV	.
.	.	.	.	.	.	3f	.
.	.	.	.	.	.	3e	.
.	.	.	.	.	.	3dZ	.
=239.	=239	=239-	=239	=239.	=239	=239.	=239
[0AA	si-	0E_yy	.	1A	.	3%2.cV	.
.	.	.	.	1A	-li-	3d	.
.	.	.	.	.	.	[3%2eZ	.
=240.	=240	=240-	=240	=240.	=240	=240.	=240
0AA]	.	0E]yy	.	1A	-o	3%2e]V	.
.	.	.	.	.	.	3%2.c#Xi	-li-
.	.	.	.	1A	si-	.	.
.	.	.	.	.	.	3BniZ	.
=241	=241	=241	=241	=241	=241	=241	=241
*	*	*rscale:1/4	*	*	*	*	*
!	!	!LO:TX:Z=12:t=Two levels of augmentation	!	!	!	!	!
!	!	!LO:N:vis=1.	!	!	!	!	!
[0BB-	-mul	[y0D	.	1F	-mul	0d	-o
.	.	.	.	1F	ad-	.	.
=242.	=242	=242-	=242	=242.	=242	=242.	=242
0BB-]	.	0D_yy	.	1G	-o-	1r	.
.	.	.	.	[1B-	-ra-	1f	si-
=243.	=243	=243-	=243	=243.	=243	=243.	=243
0GG	ad-	0D]yy	.	2B-]	.	1g	-mul
.	.	.	.	2A	.	.	.
.	.	.	.	[1d	-tur	1b-	ad-
=244	=244	=244-	=244	=244	=244	=244	=244
!	!	!LO:N:vis=1	!	!	!	!	!
0D	-o-	0r	.	1d]	.	1a	-o-
.	.	.	.	[1d	et	1a	-ra-
=245.	=245	=245-	=245	=245.	=245	=245.	=245
0E-	-ra-	0ryy	.	2d]	.	1.g	-tur
.	.	.	.	2B-	.	.	.
.	.	.	.	1c	.	.	.
.	.	.	.	.	.	2g	et
=246.	=246	=246-	=246	=246.	=246	=246.	=246
[0D	-tur	0D	et	[0d	con-	0f	con-
=247	=247	=247	=247	=247	=247	=247	=247
!	!	!LO:N:vis=1	!	!	!	!	!
0D]	.	[y0A	con-	0d]	.	1f	-glo-
.	.	.	.	.	.	[1f	-ri-
=248.	=248	=248-	=248	=248.	=248	=248.	=248
1r	.	0A]yy	.	1D	-glo-	1f]	.
1F	et	.	.	[1F	-ri-	1d	-fi-
=249.	=249	=249-	=249	=249.	=249	=249.	=249
1D	con-	0A	-glo-	1F]	.	1.f	-ca-
[1F	-glo-	.	.	1D	-fi-	.	.
.	.	.	.	.	.	2g	.
=250	=250	=250-	=250	=250	=250	=250	=250
!	!	!LO:N:vis=1	!	!	!	!	!
2F]	.	[y0c	-ri-	1.F	-ca-	0a	.
2G	-ri-	.	.	.	.	.	.
1A	-fi-	.	.	.	.	.	.
.	.	.	.	2G	.	.	.
=251.	=251	=251-	=251	=251.	=251	=251.	=251
0F	-ca-	0c]yy	.	1A	-tur;	0a	-tur;
.	.	.	.	1F	.	.	.
=252.	=252	=252-	=252	=252.	=252	=252.	=252
1E-	-tur;	0c	-fi-	1r	.	1r	.
1C	qui	.	.	1c	qui	1a	qui
=253	=253	=253	=253	=253	=253	=253	=253
!	!	!LO:N:vis=1.	!	!	!	!	!
1BB-	lo-	[y0G	-ca-	1d	.	1b-	.
[1C	-cu-	.	.	1e-i	lo-	2a	lo-
.	.	.	.	.	.	[2g	-cu-
=254.	=254	=254-	=254	=254.	=254	=254.	=254
1C]	.	0G_yy	.	1c	-cu-	2g]	.
.	.	.	.	.	.	2f	.
1GG	.	.	.	1B-	.	2e	.
.	.	.	.	.	.	[2g	.
=255.	=255	=255-	=255	=255.	=255	=255.	=255
1BB-	.	0G]yy	.	1d	.	2g]	.
.	.	.	.	.	.	2d	.
1C	-tus	.	.	2c	-tus	2e	-tus
.	.	.	.	2B-	.	4d	.
.	.	.	.	.	.	4e	.
=256	=256	=256-	=256	=256	=256	=256	=256
!	!	!LO:N:vis=1.	!	!	!	!	!
[0D	est	[y0F	-tur;	1A	est	0f	est
.	.	.	.	1B-	.	.	.
=257.	=257	=257-	=257	=257.	=257	=257.	=257
0D]	.	0F_yy	.	1A	.	1r	.
.	.	.	.	[1d	per	1a	per
=258.	=258	=258-	=258	=258.	=258	=258.	=258
1r	.	0F]yy	.	2d]	.	1a	pro-
.	.	.	.	2c	pro-	.	.
1F	per	.	.	[1c	-phe-	[1a	-phe-
=259	=259	=259	=259	=259	=259	=259	=259
!	!	!LO:N:vis=1.	!	!	!	!	!
1F	pro-	[y0A	Et	2c]	.	1a]	.
.	.	.	.	2B-	.	.	.
1F	-phe-	.	.	2A	.	[1cc	.
.	.	.	.	2G	.	.	.
=260.	=260	=260-	=260	=260.	=260	=260.	=260
0F	-tas.	0A_yy	.	1F	-tas.	2cc]	.
.	.	.	.	.	.	2b-	.
.	.	.	.	1D	.	2a	.
.	.	.	.	.	.	2g	.
=261.	=261	=261-	=261	=261.	=261	=261.	=261
[0D	.	0A]yy	.	1r	.	[0f	-tas.
.	.	.	.	[1A	Et	.	.
=262	=262	=262-	=262	=262	=262	=262	=262
!	!	!LO:N:vis=1.	!	!	!	!	!
0D_	.	[y0d	u-	1A]	.	0f]	.
.	.	.	.	1A	u-	.	.
=263.	=263	=263-	=263	=263.	=263	=263.	=263
0D]	.	0d_yy	.	0A	-nam	1r	.
!	!	!	!	!	!	!LO:TX:Z=12:t=MS&colon; c'	!
.	.	.	.	.	.	1d	Et
=264.	=264	=264-	=264	=264.	=264	=264.	=264
0BB-	Et	0d]yy	.	1.B-	sanc-	1f	u-
.	.	.	.	.	.	[1b-	-nam
.	.	.	.	4A	.	.	.
.	.	.	.	4G	.	.	.
=265	=265	=265	=265	=265	=265	=265	=265
!	!	!LO:N:vis=1	!	!	!	!	!
1r	.	[y0c	-nam	0F	-tam	2b-]	.
.	.	.	.	.	.	2a	.
[1F	u-	.	.	.	.	[1a	sanc-
=266.	=266	=266-	=266	=266.	=266	=266.	=266
2F]	.	0c]yy	.	1r	.	2a]	.
2Eni	-nam	.	.	.	.	4g	.
.	.	.	.	.	.	4f	.
1C	sanc-	.	.	1G	ca-	1e	.
=267.	=267	=267-	=267	=267.	=267	=267.	=267
0D	-tam	0A	sanc-	1D	-tho-	1f	-tam
.	.	.	.	1F	.	[1d	ca-
=268	=268	=268-	=268	=268	=268	=268	=268
!	!	!LO:N:vis=1.	!	!	!	!	!
[0GG	ca-	[y0B-	.	0G	.	1d]	.
.	.	.	.	.	.	[1b-	-tho-
=269.	=269	=269-	=269	=269.	=269	=269.	=269
1GG]	.	0B-_yy	.	0D	-li-	2b-]	.
.	.	.	.	.	.	2a	.
1GG	-tho-	.	.	.	.	2g	.
.	.	.	.	.	.	2f	.
=270.	=270	=270-	=270	=270.	=270	=270.	=270
0GG	-li-	0B-]yy	.	[0d	-cam	0g	.
=271	=271	=271	=271	=271	=271	=271	=271
*	*	*rscale:1/2	*	*	*	*	*
!	!	!LO:TX:Z=12:t=One level of augmentation	!	!	!	!	!
!	!	!LO:N:vis=1.	!	!	!	!	!
[0D	-cam	[y0A	-tam	0d]	.	[0a	.
=272.	=272	=272-	=272	=272.	=272	=272.	=272
0D]	.	1A]yy	.	1r	.	1a]	.
!	!	!LO:N:vis=1	!	!	!	!	!
.	.	1r	.	[1d	et	1f	-li-
=273.	=273	=273-	=273	=273.	=273	=273.	=273
1r	.	1ryy	.	1d]	.	0f	-cam
1F	et	1A	et	1c	.	.	.
=274	=274	=274	=274	=274	=274	=274	=274
0F	a-	0c	a-	1.A	a-	1r	.
.	.	.	.	.	.	1a	et
.	.	.	.	2B-	.	.	.
=275.	=275	=275-	=275	=275.	=275	=275.	=275
1FF	.	1c	-pos-	0c	-pos-	1a	a-
!	!	!LO:N:vis=1.	!	!	!	!	!
1C	-pos-	[y1G	-to-	.	.	1g	-pos-
=276.	=276	=276-	=276	=276.	=276	=276.	=276
1BB-	-to-	0G]yy	.	1d	-to-	1.b-	-to-
[1GG	-li-	.	.	1B-	-li-	.	.
.	.	.	.	.	.	2g	-li-
=277	=277	=277	=277	=277	=277	=277	=277
!	!	!LO:N:vis=1.	!	!	!	!	!
1GG]	.	[y0d	-li-	1G	-cam	2b-	-cam
.	.	.	.	.	.	2a	.
[1D	-cam	.	.	1A	ec-	1f	.
=278.	=278	=278-	=278	=278.	=278	=278.	=278
1D]	.	1d]yy	.	1B-	-cle-	1f	ec-
!	!	!LO:N:vis=1.	!	!	!	!	!
1C	ec-	[y1e-Xi	-cam	[1c	.	[1g	-cle-
=279.	=279	=279-	=279	=279.	=279	=279.	=279
1.E-	-cle-	0e-]yy	.	2c]	.	2g]	.
.	.	.	.	2B-	-si-	2g	-si-
.	.	.	.	[1G	-am,	1g	-am,
2F	.	.	.	.	.	.	.
=280	=280	=280	=280	=280	=280	=280	=280
!	!	!LO:N:vis=1.	!	!	!	!	!
1G	.	[y0d	ec-	1G]	.	1b-	ec-
1D	-si-	.	.	1F	ec-	1a	.
=281.	=281	=281-	=281	=281.	=281	=281.	=281
1F	-am,	1d]yy	.	1A	-cle-	1f	.
!	!	!	!	!LO:TX:Z=12:t=MS&colon; b	!	!	!
!	!	!LO:N:vis=1	!	!	!	!	!
[1E-	ec-	[y1c	.	2G	.	[1g	-cle-
.	.	.	.	[2G	.	.	.
=282.	=282	=282-	=282	=282.	=282	=282.	=282
1E-]	.	1c]yy	.	2G]	.	2g]	.
.	.	.	.	2F	.	2g	-si-
1D	.	1d	.	1A	.	1f	-am,
=283	=283	=283	=283	=283	=283	=283	=283
1G	-cle-	0B-	-cle-	2G	.	2e	ec-
.	.	.	.	1B-	.	1d	.
1GG	.	.	.	.	.	.	.
.	.	.	.	2c	.	[2g	-cle-
=284.	=284	=284-	=284	=284.	=284	=284.	=284
1BB-	.	1G	.	1d	.	2g]	.
.	.	.	.	.	.	2f	.
!	!	!LO:N:vis=1.	!	!	!	!	!
1C	.	[y1A	-si-	1e	.	2e	.
.	.	.	.	.	.	[2a	-si-
=285.	=285	=285-	=285	=285.	=285	=285.	=285
0D	.	0A]yy	.	1f	.	2a]	.
.	.	.	.	.	.	2g	.
.	.	.	.	[1d	-si-	2f#Xi	.
.	.	.	.	.	.	4e	.
.	.	.	.	.	.	4f#Xi	.
=286	=286	=286	=286	=286	=286	=286	=286
[0GG	-si-	[0Gl	-am.	2d]	.	[0gl	-am.
.	.	.	.	4c	.	.	.
.	.	.	.	4B-	.	.	.
.	.	.	.	2c	.	.	.
.	.	.	.	2d	.	.	.
=287.	=287	=287-	=287	=287.	=287	=287.	=287
0GG_	.	0G_	.	0B-	.	0g_	.
=288.	=288	=288-	=288	=288.	=288	=288.	=288
0GG]	.	0G_	.	[0dl	-am.	0g_	.
=289	=289	=289-	=289	=289	=289	=289	=289
0GGl	-am,	0G]	.	0d]	.	0g]	.
*	*	*rscale:1	*	*	*	*	*
!!LO:LB:i:g=z
=290||	=290||	=290||	=290||	=290||	=290||	=290||	=290||
*>D	*>D	*>D	*>D	*>D	*>D	*>D	*>D
*clefF4	*	*clefGv2	*	*clefGv2	*	*clefG2	*
*k[b-e-]	*	*k[b-]	*	*k[b-]	*	*k[b-]	*
*M2/1	*	*M2/1	*	*M2/1	*	*M2/1	*
*met(C)	*	*met(C)	*	*met(C)	*	*met(C)	*
*MM300	*	*MM300	*	*MM300	*	*MM300	*
!!section: Confiteor
!!!OMD: Confiteor
!	!	!LO:TX:Z=8:X=-60:t=T&colon; "Notas ut iacet cantabis nec deviabis" [normal statement]	!	!	!	!	!
0r	.	0r	.	1G	Con-	1g	Con-
.	.	.	.	2G	-fi-	2g	-fi-
.	.	.	.	2G	-te-	[2d	.
=291	=291	=291	=291	=291	=291	=291	=291
0r	.	0r	.	1B-	-or	4d]	.
.	.	.	.	.	.	4e	.
.	.	.	.	.	.	4d	.
.	.	.	.	.	.	8cL	.
.	.	.	.	.	.	8B-J	.
.	.	.	.	2c	u-	2A	-te-
.	.	.	.	2d	.	[2G	-or
=292	=292	=292	=292	=292	=292	=292	=292
0r	.	0r	.	2B-	.	2G]	.
.	.	.	.	2G	.	1g	u-
.	.	.	.	1A	.	.	.
.	.	.	.	.	.	2f#Xi	.
=293	=293	=293	=293	=293	=293	=293	=293
!	!	!	!	!	!	!LO:TX:Z=12:t=MS&colon; sb	!
1GG	Con-	1G	Con-	2.G	-num	2g	-num
.	.	.	.	.	.	2.b-	bap-
.	.	.	.	4F	.	.	.
2GG	-fi-	2G	-fi-	2D	.	.	.
.	.	.	.	.	.	4a	.
2C	-te-	2G	-te-	2E	bap-	4g	.
.	.	.	.	.	.	8fL	.
.	.	.	.	.	.	8eJ	.
=294	=294	=294	=294	=294	=294	=294	=294
2BB-	-or	1B-	-or	2F	-tis-	2d	.
2GG	.	.	.	2G	.	2.g	-tis-
2r	.	2c	u-	1A	.	.	.
.	.	.	.	.	.	4e	.
2D	u-	2d	-num	.	.	2f	.
=295	=295	=295	=295	=295	=295	=295	=295
1E-	.	2B-	bap-	1G	.	2.g	.
.	.	2G	.	.	.	.	.
.	.	.	.	.	.	4a	.
1D	.	1A	-tis-	[1d	-ma	1f	-ma
=296	=296	=296	=296	=296	=296	=296	=296
1GG	-num	2G	-ma	1d]	.	2r	.
.	.	2F	.	.	.	2d	in
2r	.	1D	.	2r	.	2.f	re-
2D	bap-	.	.	2d	in	.	.
.	.	.	.	.	.	4g	.
=297	=297	=297	=297	=297	=297	=297	=297
2.F	-tis-	2r	.	1d	re-	2a	-mis-
.	.	2D	in	.	.	1d	-si-
4G	.	.	.	.	.	.	.
2A	.	2F	.	2c	-mis-	.	.
2G	.	2G	re-	2B-	-si-	[2g	-o-
=298	=298	=298	=298	=298	=298	=298	=298
1D	.	1A	-mis-	2A	-o-	2g]	.
.	.	.	.	2.d	.	2f	.
[1GG	-ma	1G	-si-	.	.	2g	.
.	.	.	.	4c	.	.	.
.	.	.	.	4B-	.	[2b-	.
.	.	.	.	4A	.	.	.
=299	=299	=299	=299	=299	=299	=299	=299
1GG]	.	1d	-o-	1G	.	4b-]	.
.	.	.	.	.	.	4a	.
.	.	.	.	.	.	4g	.
.	.	.	.	.	.	4f	.
2r	.	2c	-nem	2A	-nem	2e	.
2D	in	2d	pec-	2D	.	[2d	-nem
=300	=300	=300	=300	=300	=300	=300	=300
1GG	.	2B-	-ca-	2r	.	2d]	.
.	.	2G	.	2d	pec-	2g	pec-
2r	.	1A	-to-	2c	-ca-	2e	-ca-
2D	re-	.	.	[2d	-to-	2f	.
=301	=301	=301	=301	=301	=301	=301	=301
2.GG	-mis-	1G	-rum.	4d]	.	2g	-to-
.	.	.	.	4c	.	.	.
.	.	.	.	4B-	.	1b-	.
4AA	.	.	.	4A	.	.	.
4BB-	.	1r	.	2G	.	.	.
4C	.	.	.	.	.	.	.
2D	-si-	.	.	2F	.	2a	.
=302	=302	=302	=302	=302	=302	=302	=302
2G	-o-	0r	.	2B-	.	2g	.
2F	.	.	.	2A	.	2.cc	.
2C	.	.	.	2.c	.	.	.
.	.	.	.	.	.	4b-	.
2F	.	.	.	.	.	4a	.
.	.	.	.	4B-	.	4g	.
=303	=303	=303	=303	=303	=303	=303	=303
2G	.	0r	.	1G	.	2.b-	.
2E-	.	.	.	.	.	.	.
.	.	.	.	.	.	8aL	.
.	.	.	.	.	.	8gJ	.
2D	.	.	.	1d	.	4f	.
.	.	.	.	.	.	4g	.
2D	-nem	.	.	.	.	4a	.
.	.	.	.	.	.	4b-	.
=304	=304	=304	=304	=304	=304	=304	=304
2r	.	0r	.	2c	.	2cc	.
2D	pec-	.	.	2d	.	4b-	.
.	.	.	.	.	.	4a	.
1E-	-ca-	.	.	2B-	.	4b-	.
.	.	.	.	.	.	4g	.
.	.	.	.	2G	.	[2g	.
=305	=305	=305	=305	=305	=305	=305	=305
1D	-to-	0r	.	1A	-rum.	2g]	.
.	.	.	.	.	.	2f#Xi	.
1GG	-rum.	.	.	2r	.	1g	-rum.
.	.	.	.	2G	Et	.	.
=306	=306	=306	=306	=306	=306	=306	=306
2r	.	0r	.	2d	ex-	2r	.
2BB-	Et	.	.	2d	-spec-	2d	Et
2C	ex-	.	.	2c	-to	2e	ex-
2C	-spec-	.	.	2c	re-	2e	-spec-
=307	=307	=307	=307	=307	=307	=307	=307
1D	-to	0r	.	2A	-sur-	2f	-to
.	.	.	.	2A	-rec-	2f	re-
1GG	.	.	.	2.G	-ti-	2g	-sur-
.	.	.	.	.	.	2b-	-rec-
.	.	.	.	4F	.	.	.
=308	=308	=308	=308	=308	=308	=308	=308
2r	.	1r	.	1D	-o-	2a	-ti-
2F	re-	.	.	.	.	4g	.
.	.	.	.	.	.	4f	.
2G	-sur-	2r	.	1C	-nem	2e	-o-
2G	-rec-	2G	Et	.	.	2g	.
=309	=309	=309	=309	=309	=309	=309	=309
2D	-ti-	2d	ex-	2F	mor-	2f	-nem
4C	.	2d	-spec-	2G	-tu-	2d	.
4BB-	.	.	.	.	.	.	.
2.AA	-o-	2c	-to	[1A	-o-	2r	.
.	.	2c	re-	.	.	2e	mor-
4BB-	.	.	.	.	.	.	.
=310	=310	=310	=310	=310	=310	=310	=310
2C	.	2A	-sur-	2A]	.	2c	.
2D	.	2A	-rec-	2F	.	2f	-tu-
1GG	-nem	2.G	-ti-	1B-	.	2e	-o-
.	.	.	.	.	.	[2d	.
.	.	4F	.	.	.	.	.
=311	=311	=311	=311	=311	=311	=311	=311
1r	.	1D	-o-	2A	.	4d]	.
.	.	.	.	.	.	4c	.
.	.	.	.	2F	.	4A	.
.	.	.	.	.	.	4B-	.
1G	mor-	1C	-nem	1E	.	4c	.
.	.	.	.	.	.	4d	.
.	.	.	.	.	.	4e	.
.	.	.	.	.	.	8dL	.
.	.	.	.	.	.	8eJ	.
=312	=312	=312	=312	=312	=312	=312	=312
2D	-tu-	2F	mor-	1D	-rum.	2f	.
2BB-	.	2G	-tu-	.	.	2d	.
1AA	.	1A	-o-	1r	.	4c	.
.	.	.	.	.	.	2f	.
.	.	.	.	.	.	4e	.
=313	=313	=313	=313	=313	=313	=313	=313
2GG	-o-	1B-	.	2r	.	4g	.
.	.	.	.	.	.	4f	.
2BB-	.	.	.	2D	Et	2d	.
2FF	.	2A	.	2A	vi-	2c	.
!LO:TX:Z=12:t=MS&colon; m	!	!	!	!LO:TX:Z=12:t=MS&colon; b m	!	!	!
[2C	.	[2G	.	2c	.	[2e	.
=314	=314	=314	=314	=314	=314	=314	=314
2C]	.	2G]	.	2c	-tam,	4e]	.
.	.	.	.	.	.	4d	.
2D	.	2F	.	2.A	.	1d	.
1AA	.	1E	.	.	.	.	.
.	.	.	.	4G	.	.	.
.	.	.	.	2A	.	2c#Xi	.
=315	=315	=315	=315	=315	=315	=315	=315
!	!	!	!	!LO:TX:Z=12:t=MS&colon; e sb	!	!	!
2.BB-	-rum.	1D	-rum.	1F	.	0d	-rum.
4C	.	.	.	.	.	.	.
4D	.	2r	.	1A	et	.	.
4Eni	.	.	.	.	.	.	.
2F	.	2D	Et	.	.	.	.
=316	=316	=316	=316	=316	=316	=316	=316
2D	.	2A	.	1d	vi-	2r	.
2.F	Et	2A	vi-	.	.	2a	Et
.	.	2c	-tam	2c	-tam	2a	vi-
4Eni	.	.	.	.	.	.	.
!	!	!	!	!LO:TX:Z=12:t=MS&colon; a	!	!	!
2C	.	2c	ven-	2G	ven-	[2g	-tam
=317	=317	=317	=317	=317	=317	=317	=317
4BB-	vi-	1G	-tu-	1B-	-tu-	4g]	.
4GG	.	.	.	.	.	4f	.
4BB-	.	.	.	.	.	4d	.
4C	.	.	.	.	.	4e	.
[1D	-tam	1F	.	1A	.	4f	.
.	.	.	.	.	.	4g	.
.	.	.	.	.	.	[2a	ven-
=318	=318	=318	=318	=318	=318	=318	=318
0D]	.	1A	-ri	1d	-ri	2a]	.
.	.	.	.	.	.	1g	-tu-
.	.	1d	.	2r	.	.	.
.	.	.	.	2B-	se-	[2b-	-ri
=319	=319	=319	=319	=319	=319	=319	=319
1r	.	2c	se-	2.c	-cu-	4b-]	.
.	.	.	.	.	.	4a	.
.	.	2A	.	.	.	1a	se-
.	.	.	.	4B-	.	.	.
1GG	ven-	1B-	-cu-	1G	-li.	.	.
.	.	.	.	.	.	2g	-cu-
=320	=320	=320	=320	=320	=320	=320	=320
0D	-tu-	1A	-li.	1r	.	2.a	-li.
.	.	.	.	.	.	4f	.
.	.	2r	.	1d	A-	1f	.
.	.	2A	A-	.	.	.	.
=321	=321	=321	=321	=321	=321	=321	=321
1C	-ri	2c	.	1e-Xi	.	2r	.
.	.	2c	.	.	.	2g	A-
1r	.	1G	.	2d	.	2b-	.
.	.	.	.	4c	.	4a	.
.	.	.	.	4B-	.	4g	.
=322	=322	=322	=322	=322	=322	=322	=322
1D	se-	1d	.	2A	.	1f	.
.	.	.	.	2B-	.	.	.
1C	-cu-	1e-X	.	2.c	.	[1g	.
.	.	.	.	4d	.	.	.
=323	=323	=323	=323	=323	=323	=323	=323
1G	-li.	1d	.	2B-	.	2g]	.
.	.	.	.	2G	.	4f	.
.	.	.	.	.	.	4e	.
2F	A-	2c	.	1A	.	2.f	.
2D	.	2d	.	.	.	.	.
.	.	.	.	.	.	4d	.
=324	=324	=324	=324	=324	=324	=324	=324
1E-	.	2B-	.	1G	-men,	2g	.
.	.	2G	.	.	.	2.g	.
1D	.	1A	.	[1d	a-	.	.
.	.	.	.	.	.	4f#Xi	.
.	.	.	.	.	.	4f#Xi	.
.	.	.	.	.	.	4e	.
=325	=325	=325	=325	=325	=325	=325	=325
[0GGl	-men.	[0Gl	-men.	2d]	.	[0gl	-men.
.	.	.	.	2d	-men,	.	.
.	.	.	.	1d	a-	.	.
=326	=326	=326	=326	=326	=326	=326	=326
0GG]	.	0G]	.	0dl	-men.	0g]	.
==	==	==	==	==	==	==	==
*-	*-	*-	*-	*-	*-	*-	*-
!!!RDF**kern: l=long note in original notation
!!!system-decoration: s1,s2,s3,s4
!!!RDF**kern: i = editorial accidental
!!!system-decoration: s1,s2,s3,s4
!!!RDF**kern: i = editorial accidental
!!!RDF**kern: V = start of tuplet marker
!!!RDF**kern: Z = end of tuplet marker
!!!ENC: Jesse Rodin and Emily Zazulia
!!!END: 2019/02/11/
!!!EED: Jesse Rodin
!!!EEV: 2019/02/27/
!!!ONB: Translated from MusicXML and edited on 2019/02/27/ by Craig Sapp
!!muse2ps: T^@{OPR}^u^@{ONM}{. }@{OTL}^C^@{COM}\n@{SMS}^v90,90,90,130i2Q4c86z18l2650
